%
(KMS)
(T1  D=0.1 CR=0. - ZMIN=-0.5 - FLAT END MILL)
N10 G90 G94 G17 G91.1
N15 G21
N20 G53 G0 Z0.
N25 M68 E0 Q60
(VIDUS)
N35 S500 M4
N40 G54
N55 G0 X18.385 Y-11.606
N60 G43 Z0.1 H1
N65 G1 Z-0.5 F10000.
N70 X15.348 Y-2.782 F180.
N75 Y-13.674
N80 X19.096
N85 X18.385 Y-11.606
N90 G0 Z0.1
N95 X26.535 Y-12.067
N100 G1 Z-0.5 F10000.
N105 Y-2.774 F180.
N110 X22.649 Y-13.674
N115 X26.535
N120 Y-12.067
N125 G0 Z0.1
N130 X5.514 Y-11.569
N135 G1 Z-0.5 F10000.
N140 X2.989 Y-7.603 F180.
N145 Y-13.674
N150 X6.855
N155 X5.514 Y-11.569
N160 G0 Z0.
(ISORE)
N175 G0 Z0.1
N180 X12.466 Y-7.018
N185 G1 Z-0.5 F10000.
N190 Y-1.43 F180.
N195 Y-1.428
N200 X12.468 Y-1.388
N205 X12.47 Y-1.347
N210 X12.472 Y-1.307
N215 X12.475 Y-1.267
N220 X12.478 Y-1.226
N225 X12.482 Y-1.186
N230 Y-1.185
N235 X12.487 Y-1.146
N240 Y-1.144
N245 X12.493 Y-1.106
N250 Y-1.104
N255 X12.5 Y-1.066
N260 X12.501 Y-1.064
N265 X12.509 Y-1.026
N270 Y-1.024
N275 X12.519 Y-0.987
N280 X12.52 Y-0.985
N285 X12.531 Y-0.948
N290 X12.532 Y-0.946
N295 X12.544 Y-0.91
N300 X12.545 Y-0.907
N305 X12.56 Y-0.872
N310 X12.561 Y-0.87
N315 X12.577 Y-0.835
N320 X12.578 Y-0.833
N325 X12.596 Y-0.798
N330 X12.597 Y-0.797
N335 X12.616 Y-0.763
N340 X12.617 Y-0.762
N345 X12.637 Y-0.728
N350 X12.638 Y-0.727
N355 X12.659 Y-0.694
N360 X12.66 Y-0.693
N365 X12.682 Y-0.66
N370 X12.705 Y-0.627
N375 X12.729 Y-0.594
N380 X12.753 Y-0.561
N385 X12.777 Y-0.529
N390 G2 X12.787 Y-0.519 I0.04 J-0.03
N395 G1 X12.816 Y-0.496
N400 X12.846 Y-0.473
N405 X12.876 Y-0.45
N410 X12.906 Y-0.428
N415 X12.937 Y-0.406
N420 X12.968 Y-0.385
N425 X12.969 Y-0.384
N430 X13. Y-0.364
N435 X13.001 Y-0.363
N440 X13.032 Y-0.344
N445 X13.034
N450 X13.065 Y-0.326
N455 X13.067 Y-0.325
N460 X13.099 Y-0.309
N465 X13.101 Y-0.308
N470 X13.134 Y-0.293
N475 X13.136 Y-0.292
N480 X13.169 Y-0.279
N485 X13.172 Y-0.278
N490 X13.206 Y-0.267
N495 X13.208 Y-0.266
N500 X13.242 Y-0.256
N505 X13.244 Y-0.255
N510 X13.28 Y-0.247
N515 X13.281 Y-0.246
N520 X13.317 Y-0.239
N525 X13.318
N530 X13.354 Y-0.232
N535 X13.356
N540 X13.392 Y-0.227
N545 X13.393
N550 X13.43 Y-0.222
N555 X13.468 Y-0.218
N560 X13.505 Y-0.215
N565 X13.543 Y-0.212
N570 X13.581 Y-0.21
N575 X13.619 Y-0.207
N580 X13.622
N585 X15.544
N590 X15.582 Y-0.208
N595 X15.619
N600 X15.656 Y-0.209
N605 X15.693 Y-0.21
N610 X15.731 Y-0.211
N615 X15.768 Y-0.212
N620 X15.805 Y-0.213
N625 X15.843 Y-0.215
N630 X15.88 Y-0.217
N635 X15.917 Y-0.219
N640 X15.955 Y-0.222
N645 X15.992 Y-0.225
N650 X16.029 Y-0.229
N655 X16.067 Y-0.233
N660 X16.104 Y-0.237
N665 X16.141 Y-0.242
N670 X16.178 Y-0.248
N675 X16.215 Y-0.253
N680 X16.252 Y-0.259
N685 X16.289 Y-0.266
N690 X16.326 Y-0.272
N695 X16.363 Y-0.278
N700 X16.399 Y-0.285
N705 X16.436 Y-0.292
N710 X16.44 Y-0.293
N715 X16.468 Y-0.3
N720 X16.496 Y-0.308
N725 X16.525 Y-0.316
N730 X16.553 Y-0.324
N735 X16.582 Y-0.332
N740 X16.61 Y-0.341
N745 X16.639 Y-0.349
N750 X16.667 Y-0.359
N755 X16.695 Y-0.369
N760 X16.723 Y-0.379
N765 X16.724
N770 X16.751 Y-0.39
N775 X16.752 Y-0.391
N780 X16.779 Y-0.402
N785 X16.78
N790 X16.807 Y-0.414
N795 X16.808 Y-0.415
N800 X16.834 Y-0.427
N805 X16.835 Y-0.428
N810 X16.861 Y-0.441
N815 X16.862
N820 X16.887 Y-0.455
N825 X16.914 Y-0.469
N830 X16.939 Y-0.484
N835 X16.965 Y-0.5
N840 X16.991 Y-0.515
N845 X17.016 Y-0.531
N850 X17.041 Y-0.546
N855 X17.066 Y-0.562
N860 X17.091 Y-0.578
N865 X17.096 Y-0.582
N870 X17.118 Y-0.6
N875 X17.14 Y-0.619
N880 X17.162 Y-0.637
N885 X17.184 Y-0.656
N890 X17.206 Y-0.675
N895 X17.228 Y-0.694
N900 X17.25 Y-0.714
N905 X17.271 Y-0.734
N910 X17.292 Y-0.755
N915 X17.293 Y-0.756
N920 X17.313 Y-0.776
N925 Y-0.777
N930 X17.333 Y-0.797
N935 X17.334 Y-0.798
N940 X17.353 Y-0.82
N945 Y-0.821
N950 X17.372 Y-0.842
N955 Y-0.843
N960 X17.39 Y-0.865
N965 X17.391 Y-0.866
N970 X17.408 Y-0.889
N975 X17.426 Y-0.913
N980 X17.443 Y-0.937
N985 X17.459 Y-0.961
N990 X17.475 Y-0.985
N995 X17.491 Y-1.01
N1000 X17.507 Y-1.034
N1005 X17.523 Y-1.059
N1010 X17.538 Y-1.083
N1015 X17.553 Y-1.108
N1020 X17.555 Y-1.112
N1025 X17.571 Y-1.143
N1030 X17.587 Y-1.175
N1035 X17.603 Y-1.207
N1040 X17.619 Y-1.239
N1045 X17.634 Y-1.271
N1050 X17.65 Y-1.303
N1055 X17.665 Y-1.335
N1060 X17.68 Y-1.368
N1065 X17.695 Y-1.401
N1070 X17.709 Y-1.434
N1075 X17.723 Y-1.467
N1080 X17.736 Y-1.5
N1085 X17.749 Y-1.534
N1090 X17.762 Y-1.568
N1095 X17.774 Y-1.602
N1100 X17.786 Y-1.635
N1105 X17.797 Y-1.669
N1110 X17.808 Y-1.703
N1115 X17.819 Y-1.737
N1120 X17.83 Y-1.771
N1125 X17.84 Y-1.805
N1130 X17.851 Y-1.84
N1135 X17.861 Y-1.874
N1140 X17.871 Y-1.906
N1145 X20.975 Y-10.454
N1150 X24.191 Y-1.928
N1155 X24.201 Y-1.895
N1160 X24.212 Y-1.861
N1165 X24.223 Y-1.827
N1170 X24.235 Y-1.793
N1175 X24.246 Y-1.759
N1180 X24.258 Y-1.725
N1185 X24.269 Y-1.691
N1190 X24.281 Y-1.657
N1195 X24.293 Y-1.623
N1200 X24.306 Y-1.589
N1205 X24.319 Y-1.556
N1210 X24.332 Y-1.522
N1215 X24.346 Y-1.488
N1220 X24.359 Y-1.455
N1225 X24.374 Y-1.422
N1230 X24.388 Y-1.389
N1235 X24.403 Y-1.356
N1240 X24.418 Y-1.323
N1245 X24.434 Y-1.291
N1250 X24.449 Y-1.258
N1255 X24.464 Y-1.226
N1260 X24.48 Y-1.193
N1265 X24.496 Y-1.161
N1270 X24.511 Y-1.129
N1275 X24.513 Y-1.126
N1280 X24.527 Y-1.102
N1285 X24.541 Y-1.078
N1290 X24.555 Y-1.054
N1295 X24.569 Y-1.029
N1300 X24.584 Y-1.005
N1305 X24.598 Y-0.981
N1310 X24.613 Y-0.957
N1315 X24.628 Y-0.934
N1320 X24.644 Y-0.91
N1325 X24.66 Y-0.886
N1330 X24.661
N1335 X24.677 Y-0.863
N1340 X24.694 Y-0.84
N1345 Y-0.839
N1350 X24.711 Y-0.818
N1355 X24.712 Y-0.817
N1360 X24.729 Y-0.795
N1365 X24.748 Y-0.774
N1370 X24.767 Y-0.752
N1375 X24.786 Y-0.731
N1380 X24.805 Y-0.71
N1385 X24.824 Y-0.69
N1390 X24.844 Y-0.67
N1395 X24.864 Y-0.65
N1400 X24.884 Y-0.63
N1405 X24.904 Y-0.61
N1410 X24.923 Y-0.59
N1415 X24.928 Y-0.586
N1420 X24.949 Y-0.57
N1425 X24.969 Y-0.555
N1430 X24.99 Y-0.539
N1435 X25.011 Y-0.523
N1440 X25.032 Y-0.507
N1445 X25.053 Y-0.492
N1450 X25.075 Y-0.477
N1455 X25.097 Y-0.462
N1460 X25.098
N1465 X25.12 Y-0.448
N1470 X25.121 Y-0.447
N1475 X25.142 Y-0.434
N1480 X25.143 Y-0.433
N1485 X25.165 Y-0.421
N1490 X25.167 Y-0.42
N1495 X25.189 Y-0.408
N1500 X25.19 Y-0.407
N1505 X25.213 Y-0.396
N1510 X25.214 Y-0.395
N1515 X25.237 Y-0.384
N1520 X25.239
N1525 X25.262 Y-0.373
N1530 X25.263
N1535 X25.286 Y-0.363
N1540 X25.311 Y-0.353
N1545 X25.336 Y-0.344
N1550 X25.361 Y-0.335
N1555 X25.386 Y-0.326
N1560 X25.411 Y-0.318
N1565 X25.436 Y-0.309
N1570 X25.461 Y-0.301
N1575 X25.485 Y-0.293
N1580 X25.49 Y-0.292
N1585 X25.52 Y-0.285
N1590 X25.55 Y-0.279
N1595 X25.58 Y-0.273
N1600 X25.61 Y-0.266
N1605 X25.64 Y-0.26
N1610 X25.671 Y-0.254
N1615 X25.701 Y-0.249
N1620 X25.732 Y-0.243
N1625 X25.762 Y-0.238
N1630 X25.793 Y-0.234
N1635 X25.824 Y-0.229
N1640 X25.855 Y-0.226
N1645 X25.886 Y-0.222
N1650 X25.917 Y-0.22
N1655 X25.948 Y-0.217
N1660 X25.979 Y-0.215
N1665 X26.01 Y-0.214
N1670 X26.041 Y-0.212
N1675 X26.072 Y-0.211
N1680 X26.103 Y-0.21
N1685 X26.134 Y-0.209
N1690 X26.165 Y-0.208
N1695 X26.195
N1700 X26.226 Y-0.207
N1705 X28.205
N1710 X28.206
N1715 X28.228 Y-0.208
N1720 X28.25
N1725 X28.273 Y-0.209
N1730 X28.295 Y-0.21
N1735 X28.317
N1740 X28.34 Y-0.212
N1745 X28.362 Y-0.213
N1750 X28.385 Y-0.215
N1755 X28.407 Y-0.216
N1760 X28.43 Y-0.219
N1765 X28.452 Y-0.221
N1770 X28.475 Y-0.224
N1775 X28.476
N1780 X28.498 Y-0.228
N1785 X28.499
N1790 X28.52 Y-0.232
N1795 X28.543 Y-0.236
N1800 X28.565 Y-0.241
N1805 X28.587 Y-0.246
N1810 X28.609 Y-0.252
N1815 X28.631 Y-0.257
N1820 X28.652 Y-0.263
N1825 X28.674 Y-0.269
N1830 X28.696 Y-0.275
N1835 X28.717 Y-0.281
N1840 X28.738 Y-0.287
N1845 X28.744 Y-0.289
N1850 X28.76 Y-0.296
N1855 X28.777 Y-0.303
N1860 X28.794 Y-0.31
N1865 X28.811 Y-0.317
N1870 X28.827 Y-0.325
N1875 X28.844 Y-0.332
N1880 X28.861 Y-0.34
N1885 X28.878 Y-0.348
N1890 X28.894 Y-0.357
N1895 X28.895 Y-0.358
N1900 X28.911 Y-0.366
N1905 X28.912 Y-0.367
N1910 X28.927 Y-0.375
N1915 X28.929 Y-0.376
N1920 X28.944 Y-0.386
N1925 X28.945
N1930 X28.96 Y-0.396
N1935 X28.961 Y-0.397
N1940 X28.975 Y-0.407
N1945 X28.976 Y-0.408
N1950 X28.991 Y-0.418
N1955 X28.992 Y-0.419
N1960 X29.006 Y-0.43
N1965 X29.02 Y-0.442
N1970 X29.021
N1975 X29.035 Y-0.454
N1980 X29.049 Y-0.466
N1985 X29.062 Y-0.478
N1990 X29.076 Y-0.491
N1995 X29.09 Y-0.503
N2000 X29.103 Y-0.515
N2005 X29.116 Y-0.528
N2010 X29.121 Y-0.533
N2015 X29.132 Y-0.547
N2020 X29.144 Y-0.561
N2025 X29.155 Y-0.575
N2030 X29.166 Y-0.589
N2035 X29.178 Y-0.604
N2040 X29.189 Y-0.618
N2045 X29.2 Y-0.633
N2050 X29.211 Y-0.648
N2055 X29.221 Y-0.664
N2060 X29.231 Y-0.679
N2065 X29.232 Y-0.68
N2070 X29.242 Y-0.695
N2075 Y-0.697
N2080 X29.251 Y-0.712
N2085 X29.252 Y-0.713
N2090 X29.26 Y-0.728
N2095 X29.261 Y-0.73
N2100 X29.269 Y-0.745
N2105 X29.27 Y-0.746
N2110 X29.278 Y-0.762
N2115 X29.286 Y-0.779
N2120 X29.293 Y-0.796
N2125 X29.301 Y-0.813
N2130 X29.308 Y-0.83
N2135 X29.315 Y-0.847
N2140 X29.322 Y-0.864
N2145 X29.328 Y-0.881
N2150 X29.335 Y-0.898
N2155 X29.341 Y-0.915
N2160 X29.343 Y-0.92
N2165 X29.348 Y-0.94
N2170 X29.354 Y-0.961
N2175 X29.359 Y-0.981
N2180 X29.365 Y-1.002
N2185 X29.37 Y-1.023
N2190 X29.375 Y-1.043
N2195 X29.38 Y-1.064
N2200 X29.385 Y-1.086
N2205 X29.389 Y-1.107
N2210 X29.393 Y-1.128
N2215 X29.397 Y-1.149
N2220 Y-1.151
N2225 X29.4 Y-1.171
N2230 X29.403 Y-1.193
N2235 X29.406 Y-1.215
N2240 X29.408 Y-1.236
N2245 X29.41 Y-1.258
N2250 X29.411 Y-1.279
N2255 X29.412 Y-1.301
N2260 X29.413 Y-1.323
N2265 X29.414 Y-1.344
N2270 X29.415 Y-1.365
N2275 X29.416 Y-1.387
N2280 Y-1.408
N2285 X29.417 Y-1.429
N2290 Y-1.43
N2295 Y-13.674
N2300 X31.732
N2305 X31.729 Y-13.667
N2310 Y-13.666
N2315 X31.724 Y-13.654
N2320 X31.718 Y-13.642
N2325 X31.713 Y-13.629
N2330 Y-13.628
N2335 X31.709 Y-13.616
N2340 X31.704 Y-13.603
N2345 X31.7 Y-13.591
N2350 X31.695 Y-13.578
N2355 X31.691 Y-13.565
N2360 X31.688 Y-13.552
N2365 X31.684 Y-13.539
N2370 X31.68 Y-13.527
N2375 X31.677 Y-13.513
N2380 X31.673 Y-13.501
N2385 X31.67 Y-13.488
N2390 X31.666 Y-13.475
N2395 X31.66 Y-13.45
N2400 X31.659 Y-13.445
N2405 X31.648 Y-13.38
N2410 X31.643 Y-13.347
N2415 X31.638 Y-13.315
N2420 X31.633 Y-13.282
N2425 X31.629 Y-13.249
N2430 X31.624 Y-13.216
N2435 X31.62 Y-13.183
N2440 X31.616 Y-13.149
N2445 X31.613 Y-13.116
N2450 X31.61 Y-13.083
N2455 X31.607 Y-13.049
N2460 X31.605 Y-13.016
N2465 X31.603 Y-12.982
N2470 X31.602 Y-12.949
N2475 X31.6 Y-12.916
N2480 X31.599 Y-12.882
N2485 Y-12.849
N2490 X31.598 Y-12.816
N2495 Y-12.782
N2500 X31.597 Y-12.749
N2505 Y-12.716
N2510 Y-12.683
N2515 Y-12.65
N2520 Y-12.625
N2525 Y-12.601
N2530 Y-12.577
N2535 Y-12.552
N2540 X31.598 Y-12.528
N2545 Y-12.504
N2550 Y-12.479
N2555 X31.599 Y-12.455
N2560 Y-12.431
N2565 X31.6 Y-12.406
N2570 Y-12.382
N2575 X31.601 Y-12.357
N2580 X31.602 Y-12.333
N2585 X31.603 Y-12.308
N2590 X31.604 Y-12.284
N2595 X31.606 Y-12.259
N2600 X31.607 Y-12.235
N2605 X31.609 Y-12.211
N2610 X31.61 Y-12.186
N2615 X31.612 Y-12.162
N2620 X31.616 Y-12.113
N2625 X31.617 Y-12.089
N2630 X31.619 Y-12.065
N2635 Y-12.063
N2640 X31.621 Y-12.047
N2645 X31.623 Y-12.031
N2650 X31.624 Y-12.015
N2655 X31.626 Y-11.999
N2660 X31.628 Y-11.982
N2665 X31.63 Y-11.966
N2670 X31.632 Y-11.95
N2675 X31.635 Y-11.933
N2680 X31.637 Y-11.917
N2685 X31.639 Y-11.901
N2690 X31.642 Y-11.884
N2695 X31.645 Y-11.868
N2700 X31.648 Y-11.851
N2705 X31.652 Y-11.835
N2710 X31.655 Y-11.818
N2715 X31.659 Y-11.802
N2720 X31.663 Y-11.786
N2725 X31.667 Y-11.77
N2730 X31.672 Y-11.754
N2735 X31.676 Y-11.738
N2740 X31.68 Y-11.722
N2745 X31.685 Y-11.706
N2750 X31.689 Y-11.691
N2755 X31.694 Y-11.675
N2760 X31.695 Y-11.671
N2765 X31.699 Y-11.661
N2770 X31.702 Y-11.651
N2775 X31.706 Y-11.641
N2780 X31.71 Y-11.631
N2785 X31.715 Y-11.621
N2790 X31.719 Y-11.61
N2795 X31.723 Y-11.6
N2800 X31.724 Y-11.599
N2805 X31.728 Y-11.59
N2810 X31.729 Y-11.589
N2815 X31.733 Y-11.58
N2820 X31.734 Y-11.579
N2825 X31.739 Y-11.569
N2830 Y-11.568
N2835 X31.744 Y-11.559
N2840 X31.745 Y-11.558
N2845 X31.75 Y-11.549
N2850 X31.751 Y-11.548
N2855 X31.757 Y-11.539
N2860 X31.758 Y-11.537
N2865 X31.764 Y-11.529
N2870 X31.765 Y-11.528
N2875 X31.771 Y-11.52
N2880 X31.772 Y-11.518
N2885 X31.779 Y-11.51
N2890 X31.78 Y-11.509
N2895 X31.787 Y-11.501
N2900 X31.794 Y-11.493
N2905 X31.795 Y-11.492
N2910 X31.802 Y-11.484
N2915 X31.81 Y-11.476
N2920 X31.818 Y-11.469
N2925 X31.825 Y-11.461
N2930 X31.826 Y-11.46
N2935 X31.834 Y-11.453
N2940 X31.841 Y-11.446
N2945 G2 X31.85 Y-11.439 I0.035 J-0.036
N2950 G1 X31.857 Y-11.435
N2955 X31.865 Y-11.43
N2960 X31.873 Y-11.426
N2965 X31.881 Y-11.421
N2970 X31.889 Y-11.416
N2975 X31.89
N2980 X31.897 Y-11.412
N2985 X31.906 Y-11.407
N2990 X31.907
N2995 X31.915 Y-11.403
N3000 X31.916 Y-11.402
N3005 X31.924 Y-11.399
N3010 X31.925 Y-11.398
N3015 X31.933 Y-11.395
N3020 X31.935 Y-11.394
N3025 X31.943 Y-11.391
N3030 X31.945
N3035 X31.953 Y-11.388
N3040 X31.954 Y-11.387
N3045 X31.963 Y-11.385
N3050 X31.964 Y-11.384
N3055 X31.973 Y-11.382
N3060 X31.975
N3065 X31.983 Y-11.38
N3070 X31.985
N3075 X31.993 Y-11.378
N3080 X32.002 Y-11.377
N3085 X32.004
N3090 X32.013 Y-11.375
N3095 X32.022 Y-11.374
N3100 X32.031 Y-11.373
N3105 X32.032
N3110 X32.041
N3115 X32.05 Y-11.372
N3120 X32.059 Y-11.371
N3125 X32.068
N3130 G2 X32.081 I0.003 J-0.05
N3135 G1 X32.101 Y-11.375
N3140 X32.121 Y-11.379
N3145 X32.141 Y-11.383
N3150 X32.161 Y-11.387
N3155 X32.181 Y-11.392
N3160 X32.202 Y-11.397
N3165 X32.203
N3170 X32.222 Y-11.402
N3175 X32.242 Y-11.408
N3180 X32.244 Y-11.409
N3185 X32.263 Y-11.415
N3190 X32.264
N3195 X32.283 Y-11.422
N3200 X32.285
N3205 X32.303 Y-11.43
N3210 X32.304
N3215 X32.323 Y-11.438
N3220 X32.324
N3225 X32.342 Y-11.447
N3230 X32.343
N3235 X32.361 Y-11.456
N3240 X32.362 Y-11.457
N3245 X32.38 Y-11.466
N3250 X32.398 Y-11.476
N3255 X32.399
N3260 X32.417 Y-11.486
N3265 X32.435 Y-11.497
N3270 X32.453 Y-11.508
N3275 X32.471 Y-11.518
N3280 X32.488 Y-11.53
N3285 X32.506 Y-11.541
N3290 X32.523 Y-11.552
N3295 X32.539 Y-11.563
N3300 X32.569 Y-11.581
N3305 X32.628 Y-11.617
N3310 X32.658 Y-11.635
N3315 X32.718 Y-11.671
N3320 X32.747 Y-11.689
N3325 X32.777 Y-11.706
N3330 X32.807 Y-11.724
N3335 X32.837 Y-11.741
N3340 X32.867 Y-11.758
N3345 X32.897 Y-11.775
N3350 X32.928 Y-11.792
N3355 X32.958 Y-11.808
N3360 X32.989 Y-11.824
N3365 X33.019 Y-11.841
N3370 X33.05 Y-11.857
N3375 X33.081 Y-11.873
N3380 X33.112 Y-11.889
N3385 X33.143 Y-11.905
N3390 X33.174 Y-11.921
N3395 X33.205 Y-11.937
N3400 X33.236 Y-11.952
N3405 X33.266 Y-11.968
N3410 X33.352 Y-12.007
N3415 X33.395 Y-12.027
N3420 X33.439 Y-12.047
N3425 X33.482 Y-12.066
N3430 X33.525 Y-12.085
N3435 X33.569 Y-12.104
N3440 X33.612 Y-12.123
N3445 X33.656 Y-12.141
N3450 X33.699 Y-12.159
N3455 X33.743 Y-12.176
N3460 X33.787 Y-12.193
N3465 X33.831 Y-12.209
N3470 X33.876 Y-12.226
N3475 X33.92 Y-12.241
N3480 X33.965 Y-12.257
N3485 X34.01 Y-12.272
N3490 X34.055 Y-12.287
N3495 X34.1 Y-12.301
N3500 X34.145 Y-12.316
N3505 X34.19 Y-12.33
N3510 X34.236 Y-12.344
N3515 X34.281 Y-12.359
N3520 X34.325 Y-12.372
N3525 X34.441 Y-12.4
N3530 X34.5 Y-12.414
N3535 X34.559 Y-12.428
N3540 X34.618 Y-12.441
N3545 X34.676 Y-12.454
N3550 X34.735 Y-12.466
N3555 X34.794 Y-12.478
N3560 X34.853 Y-12.488
N3565 X34.911 Y-12.498
N3570 X34.97 Y-12.507
N3575 X35.029 Y-12.515
N3580 X35.088 Y-12.522
N3585 X35.148 Y-12.528
N3590 X35.207 Y-12.533
N3595 X35.267 Y-12.537
N3600 X35.327 Y-12.541
N3605 X35.387 Y-12.544
N3610 X35.447 Y-12.547
N3615 X35.507 Y-12.549
N3620 X35.567 Y-12.551
N3625 X35.628 Y-12.552
N3630 X35.688 Y-12.554
N3635 X35.748 Y-12.555
N3640 X35.787 Y-12.554
N3645 X35.828 Y-12.553
N3650 X35.868 Y-12.552
N3655 X35.908 Y-12.55
N3660 X35.949 Y-12.549
N3665 X35.989 Y-12.547
N3670 X36.029 Y-12.545
N3675 X36.069 Y-12.542
N3680 X36.108 Y-12.539
N3685 X36.148 Y-12.535
N3690 X36.187 Y-12.531
N3695 X36.227 Y-12.526
N3700 X36.266 Y-12.521
N3705 X36.305 Y-12.515
N3710 X36.344 Y-12.508
N3715 X36.383 Y-12.501
N3720 X36.422 Y-12.493
N3725 X36.461 Y-12.484
N3730 X36.5 Y-12.476
N3735 X36.539 Y-12.467
N3740 X36.579 Y-12.457
N3745 X36.618 Y-12.448
N3750 X36.657 Y-12.438
N3755 X36.695 Y-12.428
N3760 X36.725 Y-12.418
N3765 X36.757 Y-12.407
N3770 X36.789 Y-12.396
N3775 X36.82 Y-12.385
N3780 X36.852 Y-12.374
N3785 X36.883 Y-12.362
N3790 X36.914 Y-12.35
N3795 X36.945 Y-12.338
N3800 X36.975 Y-12.325
N3805 X37.005 Y-12.312
N3810 X37.035 Y-12.298
N3815 X37.064 Y-12.284
N3820 X37.093 Y-12.269
N3825 X37.122 Y-12.254
N3830 X37.15 Y-12.238
N3835 X37.178 Y-12.221
N3840 X37.206 Y-12.204
N3845 X37.234 Y-12.186
N3850 X37.262 Y-12.168
N3855 X37.29 Y-12.149
N3860 X37.318 Y-12.13
N3865 X37.345 Y-12.111
N3870 X37.373 Y-12.092
N3875 X37.399 Y-12.074
N3880 X37.419 Y-12.055
N3885 X37.442 Y-12.035
N3890 X37.465 Y-12.014
N3895 X37.488 Y-11.993
N3900 X37.51 Y-11.972
N3905 X37.532 Y-11.951
N3910 X37.553 Y-11.93
N3915 X37.574 Y-11.909
N3920 X37.595 Y-11.887
N3925 X37.614 Y-11.865
N3930 X37.633 Y-11.842
N3935 X37.652 Y-11.82
N3940 X37.669 Y-11.796
N3945 X37.686 Y-11.772
N3950 X37.703 Y-11.748
N3955 X37.719 Y-11.723
N3960 X37.735 Y-11.697
N3965 X37.75 Y-11.671
N3970 X37.765 Y-11.645
N3975 X37.78 Y-11.618
N3980 X37.794 Y-11.591
N3985 X37.809 Y-11.564
N3990 X37.823 Y-11.537
N3995 X37.836 Y-11.512
N4000 X37.847 Y-11.484
N4005 X37.859 Y-11.453
N4010 X37.87 Y-11.422
N4015 X37.881 Y-11.391
N4020 X37.892 Y-11.36
N4025 X37.902 Y-11.33
N4030 X37.912 Y-11.299
N4035 X37.922 Y-11.268
N4040 X37.931 Y-11.238
N4045 X37.939 Y-11.207
N4050 X37.946 Y-11.176
N4055 X37.953 Y-11.145
N4060 X37.959 Y-11.114
N4065 X37.964 Y-11.083
N4070 X37.968 Y-11.052
N4075 X37.972 Y-11.02
N4080 X37.975 Y-10.988
N4085 X37.978 Y-10.956
N4090 X37.98 Y-10.923
N4095 X37.982 Y-10.891
N4100 X37.984 Y-10.858
N4105 X37.986 Y-10.825
N4110 X37.987 Y-10.792
N4115 X37.989 Y-10.762
N4120 X37.986 Y-10.726
N4125 X37.984 Y-10.689
N4130 X37.981 Y-10.651
N4135 X37.978 Y-10.614
N4140 X37.974 Y-10.577
N4145 X37.97 Y-10.541
N4150 X37.966 Y-10.505
N4155 X37.96 Y-10.469
N4160 X37.953 Y-10.434
N4165 X37.946 Y-10.399
N4170 X37.937 Y-10.365
N4175 X37.928 Y-10.331
N4180 X37.917 Y-10.298
N4185 X37.904 Y-10.266
N4190 X37.89 Y-10.233
N4195 X37.875 Y-10.201
N4200 X37.859 Y-10.168
N4205 X37.843 Y-10.136
N4210 X37.825 Y-10.104
N4215 X37.806 Y-10.072
N4220 X37.787 Y-10.04
N4225 X37.768 Y-10.008
N4230 X37.748 Y-9.976
N4235 X37.73 Y-9.947
N4240 X37.707 Y-9.92
N4245 X37.681 Y-9.89
N4250 X37.656 Y-9.861
N4255 X37.63 Y-9.831
N4260 X37.604 Y-9.802
N4265 X37.578 Y-9.773
N4270 X37.552 Y-9.745
N4275 X37.526 Y-9.717
N4280 X37.499 Y-9.69
N4285 X37.471 Y-9.663
N4290 X37.444 Y-9.637
N4295 X37.416 Y-9.611
N4300 X37.387 Y-9.586
N4305 X37.358 Y-9.562
N4310 X37.328 Y-9.537
N4315 X37.298 Y-9.514
N4320 X37.267 Y-9.49
N4325 X37.236 Y-9.467
N4330 X37.205 Y-9.445
N4335 X37.173 Y-9.422
N4340 X37.141 Y-9.4
N4345 X37.109 Y-9.377
N4350 X37.076 Y-9.355
N4355 X37.045 Y-9.334
N4360 X37.007 Y-9.311
N4365 X36.967 Y-9.287
N4370 X36.928 Y-9.263
N4375 X36.888 Y-9.24
N4380 X36.849 Y-9.217
N4385 X36.809 Y-9.193
N4390 X36.77 Y-9.171
N4395 X36.73 Y-9.148
N4400 X36.69 Y-9.125
N4405 X36.65 Y-9.103
N4410 X36.61 Y-9.082
N4415 X36.57 Y-9.06
N4420 X36.529 Y-9.039
N4425 X36.489 Y-9.019
N4430 X36.448 Y-8.998
N4435 X36.407 Y-8.978
N4440 X36.365 Y-8.958
N4445 X36.324 Y-8.939
N4450 X36.282 Y-8.919
N4455 X36.241 Y-8.9
N4460 X36.199 Y-8.881
N4465 X36.157 Y-8.861
N4470 X36.115 Y-8.842
N4475 X36.074 Y-8.823
N4480 X36.027 Y-8.803
N4485 X35.98 Y-8.782
N4490 X35.932 Y-8.761
N4495 X35.885 Y-8.74
N4500 X35.838 Y-8.719
N4505 X35.791 Y-8.698
N4510 X35.744 Y-8.677
N4515 X35.697 Y-8.656
N4520 X35.65 Y-8.635
N4525 X35.602 Y-8.614
N4530 X35.555 Y-8.593
N4535 X35.508 Y-8.572
N4540 X35.461 Y-8.551
N4545 X35.414 Y-8.529
N4550 X35.367 Y-8.508
N4555 X35.32 Y-8.487
N4560 X35.273 Y-8.465
N4565 X35.226 Y-8.444
N4570 X35.179 Y-8.422
N4575 X35.132 Y-8.401
N4580 X35.085 Y-8.379
N4585 X35.038 Y-8.358
N4590 X34.992 Y-8.336
N4595 X34.945 Y-8.315
N4600 X34.896 Y-8.291
N4605 X34.847 Y-8.268
N4610 X34.799 Y-8.245
N4615 X34.751 Y-8.221
N4620 X34.703 Y-8.198
N4625 X34.655 Y-8.174
N4630 X34.607 Y-8.15
N4635 X34.559 Y-8.126
N4640 X34.511 Y-8.101
N4645 X34.463 Y-8.077
N4650 X34.416 Y-8.052
N4655 X34.368 Y-8.026
N4660 X34.321 Y-8.001
N4665 X34.274 Y-7.975
N4670 X34.227 Y-7.948
N4675 X34.18 Y-7.922
N4680 X34.134 Y-7.895
N4685 X34.087 Y-7.868
N4690 X34.041 Y-7.841
N4695 X33.995 Y-7.813
N4700 X33.949 Y-7.786
N4705 X33.903 Y-7.758
N4710 X33.857 Y-7.731
N4715 X33.811 Y-7.703
N4720 X33.809 Y-7.702
N4725 X33.765 Y-7.672
N4730 X33.72 Y-7.642
N4735 X33.676 Y-7.612
N4740 X33.632 Y-7.582
N4745 X33.588 Y-7.552
N4750 X33.544 Y-7.521
N4755 X33.501 Y-7.489
N4760 X33.457 Y-7.458
N4765 X33.414 Y-7.426
N4770 X33.372 Y-7.393
N4775 X33.329 Y-7.359
N4780 X33.288 Y-7.325
N4785 X33.247 Y-7.29
N4790 X33.206 Y-7.255
N4795 X33.166 Y-7.219
N4800 X33.127 Y-7.182
N4805 X33.088 Y-7.145
N4810 X33.049 Y-7.108
N4815 X33.011 Y-7.07
N4820 X32.973 Y-7.032
N4825 X32.935 Y-6.994
N4830 X32.898 Y-6.956
N4835 X32.86 Y-6.918
N4840 X32.823 Y-6.879
N4845 X32.82 Y-6.876
N4850 X32.785 Y-6.833
N4855 X32.75 Y-6.79
N4860 X32.715 Y-6.747
N4865 X32.68 Y-6.703
N4870 X32.646 Y-6.66
N4875 X32.611 Y-6.615
N4880 X32.578 Y-6.571
N4885 X32.544 Y-6.526
N4890 X32.512 Y-6.48
N4895 X32.48 Y-6.434
N4900 X32.449 Y-6.388
N4905 Y-6.387
N4910 X32.419 Y-6.34
N4915 Y-6.339
N4920 X32.39 Y-6.292
N4925 X32.362 Y-6.243
N4930 X32.335 Y-6.194
N4935 X32.308 Y-6.145
N4940 X32.282 Y-6.095
N4945 X32.257 Y-6.045
N4950 X32.233 Y-5.995
N4955 X32.209 Y-5.945
N4960 X32.185 Y-5.894
N4965 X32.162 Y-5.843
N4970 X32.138 Y-5.793
N4975 X32.115 Y-5.742
N4980 X32.113 Y-5.737
N4985 X32.092 Y-5.674
N4990 X32.072 Y-5.611
N4995 X32.051 Y-5.548
N5000 X32.031 Y-5.484
N5005 X32.011 Y-5.421
N5010 X31.992 Y-5.357
N5015 X31.974 Y-5.293
N5020 X31.957 Y-5.228
N5025 X31.941 Y-5.164
N5030 Y-5.163
N5035 X31.927 Y-5.098
N5040 X31.926 Y-5.097
N5045 X31.913 Y-5.033
N5050 Y-5.032
N5055 X31.901 Y-4.967
N5060 Y-4.966
N5065 X31.891 Y-4.901
N5070 Y-4.9
N5075 X31.882 Y-4.835
N5080 X31.875 Y-4.769
N5085 X31.868 Y-4.702
N5090 X31.863 Y-4.636
N5095 X31.858 Y-4.569
N5100 X31.854 Y-4.503
N5105 X31.851 Y-4.436
N5110 X31.849 Y-4.369
N5115 X31.846 Y-4.303
N5120 X31.844 Y-4.236
N5125 X31.843 Y-4.17
N5130 Y-4.166
N5135 X31.846 Y-4.087
N5140 X31.849 Y-4.008
N5145 X31.853 Y-3.929
N5150 X31.857 Y-3.85
N5155 X31.862 Y-3.771
N5160 X31.868 Y-3.692
N5165 X31.875 Y-3.613
N5170 X31.883 Y-3.535
N5175 X31.892 Y-3.456
N5180 X31.903 Y-3.378
N5185 X31.904 Y-3.377
N5190 X31.916 Y-3.3
N5195 X31.917 Y-3.299
N5200 X31.931 Y-3.222
N5205 Y-3.221
N5210 X31.948 Y-3.145
N5215 X31.949 Y-3.144
N5220 X31.967 Y-3.068
N5225 X31.968 Y-3.067
N5230 X31.988 Y-2.992
N5235 X31.989 Y-2.991
N5240 X32.011 Y-2.916
N5245 X32.036 Y-2.841
N5250 X32.061 Y-2.766
N5255 X32.088 Y-2.691
N5260 X32.116 Y-2.617
N5265 X32.144 Y-2.543
N5270 X32.173 Y-2.469
N5275 X32.202 Y-2.396
N5280 X32.232 Y-2.323
N5285 X32.234 Y-2.317
N5290 X32.268 Y-2.255
N5295 X32.303 Y-2.193
N5300 X32.337 Y-2.132
N5305 X32.372 Y-2.07
N5310 X32.408 Y-2.009
N5315 X32.445 Y-1.948
N5320 X32.482 Y-1.888
N5325 X32.52 Y-1.828
N5330 X32.559 Y-1.77
N5335 X32.56 Y-1.769
N5340 X32.599 Y-1.711
N5345 X32.6 Y-1.71
N5350 X32.641 Y-1.654
N5355 X32.642 Y-1.653
N5360 X32.684 Y-1.598
N5365 X32.685 Y-1.597
N5370 X32.729 Y-1.543
N5375 X32.73 Y-1.542
N5380 X32.775 Y-1.489
N5385 X32.776 Y-1.488
N5390 X32.823 Y-1.437
N5395 X32.824 Y-1.436
N5400 X32.871 Y-1.385
N5405 X32.921 Y-1.334
N5410 X32.972 Y-1.284
N5415 X33.023 Y-1.235
N5420 X33.074 Y-1.187
N5425 X33.126 Y-1.139
N5430 X33.179 Y-1.091
N5435 X33.231 Y-1.044
N5440 X33.284 Y-0.996
N5445 X33.288 Y-0.993
N5450 X33.348 Y-0.951
N5455 X33.407 Y-0.909
N5460 X33.467 Y-0.867
N5465 X33.527 Y-0.826
N5470 X33.588 Y-0.785
N5475 X33.649 Y-0.745
N5480 X33.71 Y-0.706
N5485 X33.772 Y-0.667
N5490 X33.835 Y-0.63
N5495 X33.898 Y-0.594
N5500 X33.899 Y-0.593
N5505 X33.962 Y-0.559
N5510 X33.963 Y-0.558
N5515 X34.027 Y-0.525
N5520 X34.028
N5525 X34.093 Y-0.493
N5530 X34.094
N5535 X34.159 Y-0.463
N5540 X34.16 Y-0.462
N5545 X34.226 Y-0.433
N5550 X34.294 Y-0.405
N5555 X34.362 Y-0.379
N5560 X34.43 Y-0.353
N5565 X34.498 Y-0.328
N5570 X34.567 Y-0.303
N5575 X34.636 Y-0.279
N5580 X34.705 Y-0.256
N5585 X34.775 Y-0.233
N5590 X34.844 Y-0.21
N5595 X34.847 Y-0.208
N5600 X34.925 Y-0.189
N5605 X35.002 Y-0.17
N5610 X35.08 Y-0.152
N5615 X35.157 Y-0.133
N5620 X35.235 Y-0.115
N5625 X35.313 Y-0.098
N5630 X35.391 Y-0.081
N5635 X35.469 Y-0.065
N5640 X35.548 Y-0.05
N5645 X35.626 Y-0.037
N5650 X35.705 Y-0.024
N5655 X35.785 Y-0.012
N5660 X35.864 Y-0.002
N5665 X35.944 Y0.006
N5670 X36.023 Y0.014
N5675 X36.103 Y0.021
N5680 X36.182 Y0.026
N5685 X36.262 Y0.031
N5690 X36.342 Y0.035
N5695 X36.422 Y0.039
N5700 X36.502 Y0.042
N5705 X36.581 Y0.045
N5710 X36.661 Y0.048
N5715 X36.741 Y0.05
N5720 X36.743
N5725 X36.786 Y0.049
N5730 X36.829 Y0.048
N5735 X36.872 Y0.047
N5740 X36.916 Y0.046
N5745 X36.959 Y0.045
N5750 X37.002 Y0.044
N5755 X37.045 Y0.042
N5760 X37.088 Y0.04
N5765 X37.132 Y0.038
N5770 X37.175 Y0.036
N5775 X37.218 Y0.033
N5780 X37.261 Y0.03
N5785 X37.305 Y0.027
N5790 X37.348 Y0.023
N5795 X37.391 Y0.019
N5800 X37.434 Y0.014
N5805 X37.477 Y0.009
N5810 X37.52 Y0.004
N5815 X37.563 Y-0.001
N5820 X37.606 Y-0.006
N5825 X37.649 Y-0.012
N5830 X37.692 Y-0.017
N5835 X37.734 Y-0.023
N5840 X37.777 Y-0.029
N5845 X37.779
N5850 X37.819 Y-0.036
N5855 X37.86 Y-0.042
N5860 X37.9 Y-0.049
N5865 X37.941 Y-0.056
N5870 X37.981 Y-0.063
N5875 X38.022 Y-0.071
N5880 X38.063 Y-0.078
N5885 X38.103 Y-0.086
N5890 X38.144 Y-0.093
N5895 X38.184 Y-0.102
N5900 X38.225 Y-0.11
N5905 X38.265 Y-0.119
N5910 X38.306 Y-0.128
N5915 X38.346 Y-0.137
N5920 X38.386 Y-0.147
N5925 X38.426 Y-0.157
N5930 X38.466 Y-0.167
N5935 X38.506 Y-0.177
N5940 X38.546 Y-0.188
N5945 X38.586 Y-0.199
N5950 X38.626 Y-0.21
N5955 X38.666 Y-0.22
N5960 X38.705 Y-0.231
N5965 X38.745 Y-0.242
N5970 X38.746 Y-0.243
N5975 X38.78 Y-0.253
N5980 X38.814 Y-0.264
N5985 X38.848 Y-0.275
N5990 X38.882 Y-0.286
N5995 X38.916 Y-0.297
N6000 X38.949 Y-0.308
N6005 X38.983 Y-0.319
N6010 X39.017 Y-0.331
N6015 X39.051 Y-0.342
N6020 X39.084 Y-0.354
N6025 X39.118 Y-0.366
N6030 X39.152 Y-0.379
N6035 X39.185 Y-0.392
N6040 X39.218 Y-0.405
N6045 X39.252 Y-0.418
N6050 X39.285 Y-0.432
N6055 X39.318 Y-0.446
N6060 X39.35 Y-0.46
N6065 X39.383 Y-0.474
N6070 X39.416 Y-0.489
N6075 X39.448 Y-0.503
N6080 X39.481 Y-0.518
N6085 X39.513 Y-0.532
N6090 X39.545 Y-0.547
N6095 X39.546
N6100 X39.567 Y-0.557
N6105 X39.587 Y-0.567
N6110 X39.607 Y-0.577
N6115 X39.628 Y-0.586
N6120 X39.648 Y-0.597
N6125 X39.669 Y-0.607
N6130 X39.689 Y-0.617
N6135 X39.709 Y-0.628
N6140 X39.729 Y-0.639
N6145 X39.749 Y-0.65
N6150 X39.769 Y-0.661
N6155 X39.789 Y-0.673
N6160 X39.809 Y-0.685
N6165 X39.829 Y-0.697
N6170 X39.848 Y-0.71
N6175 X39.867 Y-0.722
N6180 X39.886 Y-0.736
N6185 X39.905 Y-0.749
N6190 X39.924 Y-0.763
N6195 X39.942 Y-0.777
N6200 X39.96 Y-0.791
N6205 X39.978 Y-0.804
N6210 X39.996 Y-0.818
N6215 X40.014 Y-0.832
N6220 X40.019 Y-0.837
N6225 X40.026 Y-0.844
N6230 X40.033 Y-0.851
N6235 X40.04 Y-0.858
N6240 X40.047 Y-0.866
N6245 X40.055 Y-0.873
N6250 X40.062 Y-0.881
N6255 X40.069 Y-0.889
N6260 X40.076 Y-0.897
N6265 X40.083 Y-0.904
N6270 X40.09 Y-0.912
N6275 X40.091 Y-0.913
N6280 X40.097 Y-0.921
N6285 X40.104 Y-0.929
N6290 X40.111 Y-0.938
N6295 X40.118 Y-0.946
N6300 Y-0.947
N6305 X40.124 Y-0.955
N6310 X40.125 Y-0.956
N6315 X40.131 Y-0.965
N6320 X40.137 Y-0.973
N6325 Y-0.974
N6330 X40.143 Y-0.982
N6335 X40.149 Y-0.991
N6340 X40.154 Y-1.
N6345 X40.16 Y-1.009
N6350 X40.166 Y-1.018
N6355 X40.171 Y-1.027
N6360 X40.176 Y-1.035
N6365 X40.18 Y-1.042
N6370 X40.187 Y-1.058
N6375 X40.191 Y-1.067
N6380 X40.194 Y-1.076
N6385 X40.198 Y-1.084
N6390 X40.201 Y-1.093
N6395 X40.205 Y-1.102
N6400 Y-1.103
N6405 X40.208 Y-1.111
N6410 X40.212 Y-1.12
N6415 X40.215 Y-1.129
N6420 Y-1.13
N6425 X40.218 Y-1.138
N6430 X40.221 Y-1.147
N6435 X40.224 Y-1.157
N6440 X40.227 Y-1.166
N6445 X40.229 Y-1.175
N6450 X40.232 Y-1.184
N6455 X40.234 Y-1.194
N6460 X40.237 Y-1.203
N6465 X40.239 Y-1.212
N6470 X40.241 Y-1.221
N6475 X40.243 Y-1.23
N6480 X40.245 Y-1.239
N6485 X40.248 Y-1.248
N6490 X40.25 Y-1.257
N6495 Y-1.26
N6500 X40.255 Y-1.286
N6505 X40.257 Y-1.3
N6510 X40.26 Y-1.313
N6515 X40.262 Y-1.327
N6520 X40.264 Y-1.341
N6525 X40.267 Y-1.354
N6530 X40.269 Y-1.368
N6535 X40.271 Y-1.382
N6540 X40.273 Y-1.396
N6545 X40.275 Y-1.409
N6550 X40.276 Y-1.424
N6555 X40.278 Y-1.438
N6560 X40.279 Y-1.451
N6565 X40.281 Y-1.465
N6570 X40.282 Y-1.479
N6575 X40.283 Y-1.493
N6580 X40.284 Y-1.507
N6585 X40.285 Y-1.521
N6590 X40.286 Y-1.534
N6595 X40.287 Y-1.548
N6600 X40.288 Y-1.562
N6605 X40.289 Y-1.575
N6610 X40.29 Y-1.589
N6615 Y-1.59
N6620 X40.291 Y-1.61
N6625 X40.293 Y-1.651
N6630 Y-1.671
N6635 X40.294 Y-1.691
N6640 X40.295 Y-1.712
N6645 X40.296 Y-1.732
N6650 X40.297 Y-1.752
N6655 Y-1.773
N6660 X40.298 Y-1.793
N6665 Y-1.814
N6670 X40.299 Y-1.834
N6675 Y-1.854
N6680 X40.3 Y-1.875
N6685 Y-1.916
N6690 Y-1.936
N6695 X40.301 Y-1.957
N6700 Y-1.977
N6705 Y-1.997
N6710 Y-2.038
N6715 Y-2.058
N6720 Y-2.078
N6725 Y-2.102
N6730 Y-2.124
N6735 Y-2.147
N6740 Y-2.17
N6745 X40.3 Y-2.193
N6750 Y-2.239
N6755 Y-2.262
N6760 X40.299 Y-2.285
N6765 Y-2.308
N6770 X40.298 Y-2.331
N6775 Y-2.354
N6780 X40.297 Y-2.377
N6785 X40.296 Y-2.4
N6790 X40.295 Y-2.423
N6795 X40.294 Y-2.446
N6800 X40.293 Y-2.469
N6805 X40.292 Y-2.492
N6810 X40.29 Y-2.537
N6815 X40.288 Y-2.561
N6820 X40.287 Y-2.583
N6825 X40.286 Y-2.606
N6830 X40.284 Y-2.629
N6835 Y-2.63
N6840 X40.282 Y-2.661
N6845 X40.28 Y-2.677
N6850 X40.279 Y-2.693
N6855 X40.277 Y-2.708
N6860 X40.276 Y-2.724
N6865 X40.274 Y-2.74
N6870 X40.272 Y-2.756
N6875 X40.271 Y-2.771
N6880 X40.269 Y-2.787
N6885 X40.267 Y-2.803
N6890 X40.264 Y-2.819
N6895 X40.262 Y-2.835
N6900 X40.259 Y-2.85
N6905 X40.257 Y-2.866
N6910 X40.254 Y-2.882
N6915 X40.251 Y-2.898
N6920 X40.248 Y-2.913
N6925 X40.244 Y-2.929
N6930 X40.241 Y-2.945
N6935 X40.238 Y-2.96
N6940 X40.234 Y-2.975
N6945 X40.231 Y-2.991
N6950 X40.227 Y-3.006
N6955 X40.226 Y-3.009
N6960 X40.224 Y-3.019
N6965 X40.221 Y-3.029
N6970 X40.218 Y-3.038
N6975 X40.214 Y-3.049
N6980 X40.211 Y-3.059
N6985 X40.208 Y-3.069
N6990 Y-3.07
N6995 X40.204 Y-3.08
N7000 X40.2 Y-3.09
N7005 Y-3.091
N7010 X40.196 Y-3.1
N7015 Y-3.101
N7020 X40.192 Y-3.111
N7025 X40.187 Y-3.12
N7030 Y-3.122
N7035 X40.182 Y-3.131
N7040 X40.181 Y-3.132
N7045 X40.177 Y-3.141
N7050 X40.176 Y-3.143
N7055 X40.171 Y-3.151
N7060 X40.17 Y-3.153
N7065 X40.165 Y-3.161
N7070 X40.164 Y-3.162
N7075 X40.159 Y-3.171
N7080 X40.158 Y-3.172
N7085 X40.152 Y-3.18
N7090 X40.151 Y-3.181
N7095 X40.145 Y-3.189
N7100 X40.139 Y-3.198
N7105 X40.138 Y-3.199
N7110 X40.132 Y-3.207
N7115 X40.125 Y-3.215
N7120 X40.119 Y-3.223
N7125 X40.112 Y-3.231
N7130 X40.105 Y-3.239
N7135 G2 X40.096 Y-3.248 I-0.038 J0.032
N7140 G1 X40.088 Y-3.253
N7145 X40.081 Y-3.258
N7150 X40.073 Y-3.264
N7155 X40.065 Y-3.269
N7160 X40.057 Y-3.274
N7165 Y-3.275
N7170 X40.049 Y-3.28
N7175 X40.048
N7180 X40.04 Y-3.285
N7185 X40.039
N7190 X40.032 Y-3.289
N7195 X40.03 Y-3.29
N7200 X40.022 Y-3.294
N7205 X40.021 Y-3.295
N7210 X40.013 Y-3.299
N7215 X40.011 Y-3.3
N7220 X40.003 Y-3.303
N7225 X40.001 Y-3.304
N7230 X39.993 Y-3.307
N7235 X39.99
N7240 X39.982 Y-3.31
N7245 X39.98
N7250 X39.972 Y-3.313
N7255 X39.97
N7260 X39.961 Y-3.315
N7265 X39.96
N7270 X39.951 Y-3.317
N7275 X39.95
N7280 X39.941 Y-3.318
N7285 X39.94 Y-3.319
N7290 X39.931 Y-3.32
N7295 X39.93
N7300 X39.921 Y-3.321
N7305 X39.911 Y-3.322
N7310 X39.902
N7315 X39.892 Y-3.323
N7320 X39.883 Y-3.324
N7325 X39.874
N7330 G2 X39.861 Y-3.323 I-0.003 J0.05
N7335 G1 X39.844 Y-3.32
N7340 X39.826 Y-3.316
N7345 X39.809 Y-3.312
N7350 X39.791 Y-3.309
N7355 X39.773 Y-3.304
N7360 X39.755 Y-3.3
N7365 X39.737 Y-3.295
N7370 X39.736
N7375 X39.72 Y-3.29
N7380 X39.718
N7385 X39.702 Y-3.284
N7390 X39.7
N7395 X39.684 Y-3.278
N7400 X39.682
N7405 X39.666 Y-3.271
N7410 X39.665
N7415 X39.649 Y-3.264
N7420 X39.648
N7425 X39.631 Y-3.257
N7430 Y-3.256
N7435 X39.615 Y-3.249
N7440 X39.598 Y-3.241
N7445 X39.581 Y-3.233
N7450 X39.565 Y-3.224
N7455 X39.549 Y-3.215
N7460 X39.533 Y-3.206
N7465 X39.517 Y-3.197
N7470 X39.501 Y-3.188
N7475 X39.486 Y-3.179
N7480 X39.47 Y-3.17
N7485 X39.455 Y-3.161
N7490 X39.429 Y-3.146
N7495 X39.402 Y-3.131
N7500 X39.375 Y-3.116
N7505 X39.348 Y-3.101
N7510 X39.321 Y-3.086
N7515 X39.294 Y-3.071
N7520 X39.267 Y-3.057
N7525 X39.24 Y-3.042
N7530 X39.213 Y-3.027
N7535 X39.186 Y-3.013
N7540 X39.159 Y-2.999
N7545 X39.131 Y-2.985
N7550 X39.104 Y-2.971
N7555 X39.076 Y-2.957
N7560 X39.049 Y-2.943
N7565 X39.022 Y-2.929
N7570 X38.994 Y-2.916
N7575 X38.966 Y-2.902
N7580 X38.939 Y-2.889
N7585 X38.911 Y-2.875
N7590 X38.883 Y-2.862
N7595 X38.855 Y-2.849
N7600 X38.827 Y-2.835
N7605 X38.8 Y-2.822
N7610 X38.764 Y-2.807
N7615 X38.727 Y-2.79
N7620 X38.69 Y-2.774
N7625 X38.653 Y-2.758
N7630 X38.616 Y-2.743
N7635 X38.58 Y-2.727
N7640 X38.543 Y-2.712
N7645 X38.506 Y-2.696
N7650 X38.469 Y-2.682
N7655 X38.432 Y-2.667
N7660 X38.395 Y-2.653
N7665 X38.357 Y-2.639
N7670 X38.32 Y-2.625
N7675 X38.282 Y-2.612
N7680 X38.245 Y-2.599
N7685 X38.207 Y-2.586
N7690 X38.169 Y-2.574
N7695 X38.131 Y-2.561
N7700 X38.093 Y-2.549
N7705 X38.055 Y-2.537
N7710 X38.016 Y-2.525
N7715 X37.978 Y-2.513
N7720 X37.939 Y-2.501
N7725 X37.902 Y-2.49
N7730 X37.857 Y-2.479
N7735 X37.811 Y-2.468
N7740 X37.765 Y-2.456
N7745 X37.719 Y-2.446
N7750 X37.673 Y-2.435
N7755 X37.627 Y-2.425
N7760 X37.581 Y-2.415
N7765 X37.535 Y-2.406
N7770 X37.489 Y-2.397
N7775 X37.443 Y-2.389
N7780 X37.396 Y-2.382
N7785 X37.35 Y-2.375
N7790 X37.304 Y-2.37
N7795 X37.258 Y-2.365
N7800 X37.211 Y-2.361
N7805 X37.164 Y-2.357
N7810 X37.117 Y-2.354
N7815 X37.07 Y-2.351
N7820 X37.023 Y-2.349
N7825 X36.976 Y-2.347
N7830 X36.928 Y-2.345
N7835 X36.881 Y-2.343
N7840 X36.833 Y-2.342
N7845 X36.787 Y-2.341
N7850 X36.753 Y-2.342
N7855 X36.717 Y-2.343
N7860 X36.682 Y-2.344
N7865 X36.647 Y-2.345
N7870 X36.612 Y-2.346
N7875 X36.577 Y-2.348
N7880 X36.542 Y-2.35
N7885 X36.507 Y-2.352
N7890 X36.473 Y-2.355
N7895 X36.438 Y-2.358
N7900 X36.404 Y-2.362
N7905 X36.37 Y-2.366
N7910 X36.336 Y-2.371
N7915 X36.302 Y-2.377
N7920 X36.268 Y-2.383
N7925 X36.234 Y-2.389
N7930 X36.2 Y-2.397
N7935 X36.166 Y-2.404
N7940 X36.132 Y-2.412
N7945 X36.098 Y-2.421
N7950 X36.064 Y-2.43
N7955 X36.03 Y-2.438
N7960 X35.996 Y-2.447
N7965 X35.964 Y-2.456
N7970 X35.939 Y-2.465
N7975 X35.913 Y-2.475
N7980 X35.886 Y-2.485
N7985 X35.86 Y-2.495
N7990 X35.833 Y-2.505
N7995 X35.807 Y-2.515
N8000 X35.782 Y-2.526
N8005 X35.756 Y-2.537
N8010 X35.731 Y-2.548
N8015 X35.706 Y-2.56
N8020 X35.682 Y-2.572
N8025 X35.657 Y-2.585
N8030 X35.634 Y-2.598
N8035 X35.61 Y-2.612
N8040 X35.587 Y-2.626
N8045 X35.564 Y-2.641
N8050 X35.541 Y-2.656
N8055 X35.518 Y-2.672
N8060 X35.495 Y-2.688
N8065 X35.472 Y-2.704
N8070 X35.45 Y-2.721
N8075 X35.427 Y-2.738
N8080 X35.404 Y-2.755
N8085 X35.384 Y-2.77
N8090 X35.367 Y-2.786
N8095 X35.349 Y-2.804
N8100 X35.33 Y-2.822
N8105 X35.312 Y-2.84
N8110 X35.295 Y-2.858
N8115 X35.277 Y-2.876
N8120 X35.26 Y-2.894
N8125 X35.244 Y-2.913
N8130 X35.228 Y-2.931
N8135 X35.212 Y-2.95
N8140 X35.197 Y-2.969
N8145 X35.183 Y-2.988
N8150 X35.169 Y-3.008
N8155 X35.156 Y-3.028
N8160 X35.143 Y-3.049
N8165 X35.13 Y-3.07
N8170 X35.118 Y-3.092
N8175 X35.106 Y-3.114
N8180 X35.095 Y-3.136
N8185 X35.083 Y-3.158
N8190 X35.072 Y-3.181
N8195 X35.061 Y-3.204
N8200 X35.05 Y-3.228
N8205 X35.04 Y-3.248
N8210 X35.032 Y-3.271
N8215 X35.024 Y-3.296
N8220 X35.015 Y-3.32
N8225 X35.007 Y-3.345
N8230 X34.999 Y-3.369
N8235 X34.991 Y-3.394
N8240 X34.984 Y-3.418
N8245 X34.977 Y-3.443
N8250 X34.971 Y-3.467
N8255 X34.965 Y-3.492
N8260 X34.959 Y-3.516
N8265 X34.954 Y-3.54
N8270 X34.95 Y-3.565
N8275 X34.946 Y-3.59
N8280 X34.943 Y-3.615
N8285 X34.94 Y-3.64
N8290 X34.937 Y-3.665
N8295 X34.935 Y-3.691
N8300 X34.933 Y-3.716
N8305 X34.931 Y-3.742
N8310 X34.93 Y-3.768
N8315 X34.929 Y-3.794
N8320 X34.927 Y-3.82
N8325 X34.926 Y-3.844
N8330 X34.928 Y-3.878
N8335 X34.931 Y-3.915
N8340 X34.934 Y-3.952
N8345 X34.937 Y-3.989
N8350 X34.94 Y-4.025
N8355 X34.944 Y-4.061
N8360 X34.949 Y-4.097
N8365 X34.955 Y-4.132
N8370 X34.961 Y-4.167
N8375 X34.968 Y-4.201
N8380 X34.977 Y-4.234
N8385 X34.986 Y-4.268
N8390 X34.997 Y-4.3
N8395 X35.009 Y-4.332
N8400 X35.023 Y-4.365
N8405 X35.037 Y-4.397
N8410 X35.053 Y-4.428
N8415 X35.07 Y-4.46
N8420 X35.087 Y-4.492
N8425 X35.105 Y-4.524
N8430 X35.123 Y-4.555
N8435 X35.142 Y-4.587
N8440 X35.162 Y-4.619
N8445 X35.179 Y-4.647
N8450 X35.202 Y-4.675
N8455 X35.228 Y-4.705
N8460 X35.254 Y-4.735
N8465 X35.279 Y-4.764
N8470 X35.305 Y-4.793
N8475 X35.331 Y-4.822
N8480 X35.357 Y-4.851
N8485 X35.384 Y-4.879
N8490 X35.411 Y-4.906
N8495 X35.438 Y-4.933
N8500 X35.466 Y-4.959
N8505 X35.494 Y-4.985
N8510 X35.523 Y-5.01
N8515 X35.553 Y-5.034
N8520 X35.583 Y-5.058
N8525 X35.613 Y-5.082
N8530 X35.644 Y-5.105
N8535 X35.676 Y-5.128
N8540 X35.708 Y-5.15
N8545 X35.74 Y-5.173
N8550 X35.772 Y-5.195
N8555 X35.805 Y-5.217
N8560 X35.838 Y-5.239
N8565 X35.869 Y-5.26
N8570 X35.909 Y-5.283
N8575 X35.949 Y-5.307
N8580 X35.989 Y-5.33
N8585 X36.03 Y-5.354
N8590 X36.07 Y-5.377
N8595 X36.111 Y-5.4
N8600 X36.151 Y-5.423
N8605 X36.192 Y-5.446
N8610 X36.233 Y-5.468
N8615 X36.274 Y-5.49
N8620 X36.315 Y-5.512
N8625 X36.356 Y-5.533
N8630 X36.398 Y-5.554
N8635 X36.439 Y-5.575
N8640 X36.481 Y-5.595
N8645 X36.523 Y-5.616
N8650 X36.565 Y-5.635
N8655 X36.607 Y-5.655
N8660 X36.65 Y-5.675
N8665 X36.692 Y-5.694
N8670 X36.735 Y-5.713
N8675 X36.778 Y-5.732
N8680 X36.82 Y-5.752
N8685 X36.863 Y-5.771
N8690 X36.911 Y-5.791
N8695 X36.958 Y-5.812
N8700 X37.006 Y-5.833
N8705 X37.054 Y-5.854
N8710 X37.101 Y-5.874
N8715 X37.149 Y-5.895
N8720 X37.197 Y-5.916
N8725 X37.244 Y-5.937
N8730 X37.292 Y-5.958
N8735 X37.34 Y-5.979
N8740 X37.387 Y-6.
N8745 X37.435 Y-6.021
N8750 X37.482 Y-6.042
N8755 X37.53 Y-6.064
N8760 X37.577 Y-6.085
N8765 X37.625 Y-6.107
N8770 X37.672 Y-6.128
N8775 X37.72 Y-6.15
N8780 X37.767 Y-6.171
N8785 X37.814 Y-6.193
N8790 X37.862 Y-6.214
N8795 X37.909 Y-6.236
N8800 X38.004 Y-6.279
N8805 X38.053 Y-6.303
N8810 X38.102 Y-6.326
N8815 X38.15 Y-6.35
N8820 X38.199 Y-6.373
N8825 X38.247 Y-6.397
N8830 X38.296 Y-6.421
N8835 X38.344 Y-6.445
N8840 X38.393 Y-6.469
N8845 X38.441 Y-6.494
N8850 X38.489 Y-6.518
N8855 X38.537 Y-6.543
N8860 X38.585 Y-6.569
N8865 X38.633 Y-6.594
N8870 X38.68 Y-6.62
N8875 X38.727 Y-6.647
N8880 X38.775 Y-6.673
N8885 X38.822 Y-6.7
N8890 X38.869 Y-6.727
N8895 X38.915 Y-6.754
N8900 X38.962 Y-6.781
N8905 X39.009 Y-6.809
N8910 X39.055 Y-6.836
N8915 X39.102 Y-6.863
N8920 X39.148 Y-6.891
N8925 X39.15 Y-6.892
N8930 X39.195 Y-6.922
N8935 X39.24 Y-6.951
N8940 X39.285 Y-6.981
N8945 X39.33 Y-7.011
N8950 X39.375 Y-7.042
N8955 X39.419 Y-7.073
N8960 X39.464 Y-7.104
N8965 X39.508 Y-7.135
N8970 X39.551 Y-7.167
N8975 X39.595 Y-7.2
N8980 X39.638 Y-7.234
N8985 X39.68 Y-7.268
N8990 X39.722 Y-7.303
N8995 X39.763 Y-7.338
N9000 X39.804 Y-7.374
N9005 X39.844 Y-7.411
N9010 X39.884 Y-7.448
N9015 X39.923 Y-7.485
N9020 X39.962 Y-7.523
N9025 X40. Y-7.561
N9030 X40.039 Y-7.599
N9035 X40.077 Y-7.638
N9040 X40.115 Y-7.676
N9045 X40.153 Y-7.715
N9050 X40.156 Y-7.718
N9055 X40.191 Y-7.76
N9060 X40.226 Y-7.803
N9065 X40.262 Y-7.846
N9070 X40.297 Y-7.889
N9075 X40.332 Y-7.933
N9080 X40.366 Y-7.977
N9085 X40.4 Y-8.021
N9090 X40.434 Y-8.066
N9095 X40.466 Y-8.111
N9100 X40.498 Y-8.157
N9105 X40.53 Y-8.203
N9110 Y-8.204
N9115 X40.56 Y-8.25
N9120 X40.589 Y-8.298
N9125 X40.618 Y-8.347
N9130 X40.645 Y-8.395
N9135 X40.672 Y-8.445
N9140 X40.698 Y-8.494
N9145 X40.723 Y-8.544
N9150 X40.748 Y-8.594
N9155 X40.772 Y-8.644
N9160 X40.796 Y-8.695
N9165 X40.82 Y-8.745
N9170 X40.843 Y-8.796
N9175 X40.866 Y-8.846
N9180 X40.868 Y-8.851
N9185 X40.889 Y-8.912
N9190 X40.91 Y-8.974
N9195 X40.93 Y-9.036
N9200 X40.95 Y-9.097
N9205 X40.97 Y-9.159
N9210 X40.988 Y-9.222
N9215 X41.006 Y-9.284
N9220 X41.023 Y-9.347
N9225 X41.039 Y-9.41
N9230 X41.04 Y-9.411
N9235 X41.054 Y-9.473
N9240 Y-9.475
N9245 X41.067 Y-9.537
N9250 X41.068 Y-9.538
N9255 X41.079 Y-9.601
N9260 Y-9.603
N9265 X41.09 Y-9.666
N9270 Y-9.667
N9275 X41.099 Y-9.73
N9280 Y-9.731
N9285 X41.106 Y-9.795
N9290 X41.113 Y-9.86
N9295 X41.118 Y-9.925
N9300 X41.123 Y-9.99
N9305 X41.127 Y-10.055
N9310 X41.13 Y-10.12
N9315 X41.133 Y-10.185
N9320 X41.135 Y-10.25
N9325 X41.137 Y-10.315
N9330 X41.139 Y-10.38
N9335 Y-10.383
N9340 X41.136 Y-10.47
N9345 X41.132 Y-10.556
N9350 X41.128 Y-10.643
N9355 X41.123 Y-10.729
N9360 X41.118 Y-10.816
N9365 X41.112 Y-10.902
N9370 X41.104 Y-10.988
N9375 X41.095 Y-11.074
N9380 X41.085 Y-11.16
N9385 Y-11.161
N9390 X41.072 Y-11.246
N9395 Y-11.247
N9400 X41.058 Y-11.331
N9405 Y-11.332
N9410 X41.042 Y-11.416
N9415 Y-11.417
N9420 X41.023 Y-11.501
N9425 Y-11.502
N9430 X41.002 Y-11.585
N9435 Y-11.586
N9440 X40.979 Y-11.668
N9445 X40.978 Y-11.669
N9450 X40.954 Y-11.751
N9455 X40.927 Y-11.833
N9460 X40.899 Y-11.915
N9465 X40.869 Y-11.997
N9470 X40.839 Y-12.078
N9475 X40.808 Y-12.159
N9480 X40.776 Y-12.24
N9485 X40.743 Y-12.32
N9490 X40.711 Y-12.4
N9495 X40.708 Y-12.406
N9500 X40.67 Y-12.474
N9505 X40.632 Y-12.542
N9510 X40.594 Y-12.609
N9515 X40.555 Y-12.677
N9520 X40.515 Y-12.744
N9525 X40.475 Y-12.811
N9530 X40.434 Y-12.877
N9535 X40.391 Y-12.942
N9540 X40.348 Y-13.007
N9545 Y-13.008
N9550 X40.303 Y-13.071
N9555 Y-13.072
N9560 X40.257 Y-13.133
N9565 X40.256 Y-13.134
N9570 X40.209 Y-13.195
N9575 X40.208 Y-13.196
N9580 X40.16 Y-13.255
N9585 X40.159 Y-13.256
N9590 X40.109 Y-13.314
N9595 X40.108 Y-13.315
N9600 X40.056 Y-13.372
N9605 X40.055 Y-13.373
N9610 X40.002 Y-13.429
N9615 X39.948 Y-13.484
N9620 X39.892 Y-13.539
N9625 X39.836 Y-13.593
N9630 X39.779 Y-13.646
N9635 X39.721 Y-13.699
N9640 X39.663 Y-13.751
N9645 X39.605 Y-13.803
N9650 X39.547 Y-13.855
N9655 X39.542 Y-13.858
N9660 X39.477 Y-13.905
N9665 X39.411 Y-13.951
N9670 X39.345 Y-13.997
N9675 X39.279 Y-14.042
N9680 X39.212 Y-14.088
N9685 X39.146 Y-14.132
N9690 X39.078 Y-14.176
N9695 X39.01 Y-14.218
N9700 X38.941 Y-14.26
N9705 X38.871 Y-14.3
N9710 X38.801 Y-14.339
N9715 X38.8
N9720 X38.729 Y-14.376
N9725 X38.728 Y-14.377
N9730 X38.657 Y-14.412
N9735 X38.656
N9740 X38.584 Y-14.446
N9745 X38.583
N9750 X38.51 Y-14.479
N9755 X38.436 Y-14.51
N9760 X38.361 Y-14.54
N9765 X38.286 Y-14.569
N9770 X38.211 Y-14.598
N9775 X38.135 Y-14.625
N9780 X38.059 Y-14.652
N9785 X37.983 Y-14.679
N9790 X37.907 Y-14.705
N9795 X37.831 Y-14.731
N9800 X37.827 Y-14.732
N9805 X37.742 Y-14.754
N9810 X37.657 Y-14.775
N9815 X37.571 Y-14.796
N9820 X37.486 Y-14.817
N9825 X37.4 Y-14.838
N9830 X37.314 Y-14.857
N9835 X37.228 Y-14.876
N9840 X37.142 Y-14.894
N9845 X37.055 Y-14.911
N9850 X36.968 Y-14.927
N9855 X36.881 Y-14.941
N9860 X36.794 Y-14.954
N9865 X36.706 Y-14.965
N9870 X36.619 Y-14.975
N9875 X36.531 Y-14.984
N9880 X36.443 Y-14.991
N9885 X36.355 Y-14.998
N9890 X36.267 Y-15.003
N9895 X36.179 Y-15.008
N9900 X36.09 Y-15.012
N9905 X36.002 Y-15.015
N9910 X35.914 Y-15.018
N9915 X35.826 Y-15.021
N9920 X35.738 Y-15.024
N9925 X35.736
N9930 X35.677 Y-15.023
N9935 X35.619 Y-15.022
N9940 X35.56 Y-15.021
N9945 X35.502 Y-15.019
N9950 X35.444 Y-15.018
N9955 X35.385 Y-15.016
N9960 X35.327 Y-15.013
N9965 X35.268 Y-15.011
N9970 X35.21 Y-15.008
N9975 X35.151 Y-15.004
N9980 X35.092 Y-15.
N9985 X35.034 Y-14.995
N9990 X34.976 Y-14.99
N9995 X34.917 Y-14.984
N10000 X34.859 Y-14.977
N10005 X34.801 Y-14.97
N10010 X34.742 Y-14.962
N10015 X34.684 Y-14.954
N10020 X34.626 Y-14.946
N10025 X34.568 Y-14.937
N10030 X34.511 Y-14.928
N10035 X34.453 Y-14.919
N10040 X34.395 Y-14.91
N10045 X34.337 Y-14.9
N10050 X34.336
N10055 X34.316 Y-14.896
N10060 X34.296 Y-14.892
N10065 X34.277 Y-14.888
N10070 X34.257 Y-14.884
N10075 X34.238 Y-14.88
N10080 X34.218 Y-14.876
N10085 X34.199 Y-14.872
N10090 X34.16 Y-14.864
N10095 X34.14 Y-14.86
N10100 X34.101 Y-14.852
N10105 X34.082 Y-14.848
N10110 X34.062 Y-14.843
N10115 X34.043 Y-14.839
N10120 X34.023 Y-14.835
N10125 X34.004 Y-14.831
N10130 X33.984 Y-14.826
N10135 X33.965 Y-14.822
N10140 X33.945 Y-14.817
N10145 X33.926 Y-14.813
N10150 X33.906 Y-14.808
N10155 X33.887 Y-14.804
N10160 X33.873 Y-14.801
N10165 X28.654
N10170 X28.628 Y-14.803
N10175 X28.572 Y-14.808
N10180 X28.543 Y-14.811
N10185 X28.515 Y-14.814
N10190 X28.486 Y-14.816
N10195 X28.458 Y-14.818
N10200 X28.429 Y-14.821
N10205 X28.4 Y-14.823
N10210 X28.372 Y-14.824
N10215 X28.343 Y-14.826
N10220 X28.314 Y-14.827
N10225 X28.285 Y-14.829
N10230 X28.256 Y-14.83
N10235 X28.228 Y-14.831
N10240 X28.199
N10245 X28.171 Y-14.832
N10250 X28.142 Y-14.833
N10255 X28.113
N10260 X28.085
N10265 X28.056
N10270 X28.028 Y-14.834
N10275 X27.999
N10280 X27.971
N10285 X27.942
N10290 X27.886 Y-14.833
N10295 X27.858
N10300 X27.83
N10305 X27.801 Y-14.832
N10310 X27.773
N10315 X27.745 Y-14.831
N10320 X27.717
N10325 X27.689 Y-14.83
N10330 X27.66 Y-14.829
N10335 X27.632 Y-14.827
N10340 X27.604 Y-14.826
N10345 X27.576 Y-14.824
N10350 X27.547 Y-14.822
N10355 X27.519 Y-14.82
N10360 X27.491 Y-14.818
N10365 X27.463 Y-14.816
N10370 X27.435 Y-14.814
N10375 X27.407 Y-14.811
N10380 X27.379 Y-14.808
N10385 X27.351 Y-14.806
N10390 X27.323 Y-14.803
N10395 X27.297 Y-14.801
N10400 X21.694
N10405 X21.69
N10410 X21.682 Y-14.802
N10415 X21.675 Y-14.803
N10420 X21.667 Y-14.804
N10425 X21.659 Y-14.805
N10430 X21.652 Y-14.806
N10435 X21.644
N10440 X21.636 Y-14.807
N10445 X21.629 Y-14.808
N10450 X21.621 Y-14.809
N10455 X21.614
N10460 X21.606 Y-14.81
N10465 X21.598 Y-14.811
N10470 X21.591
N10475 X21.583 Y-14.812
N10480 X21.553 Y-14.814
N10485 X21.545 Y-14.815
N10490 X21.537
N10495 X21.523 Y-14.817
N10500 X21.514
N10505 X21.487 Y-14.819
N10510 X21.46 Y-14.82
N10515 X21.433 Y-14.821
N10520 X21.406 Y-14.823
N10525 X21.379 Y-14.824
N10530 X21.352 Y-14.825
N10535 X21.324 Y-14.826
N10540 X21.297 Y-14.827
N10545 X21.27 Y-14.828
N10550 X21.243 Y-14.829
N10555 X21.216 Y-14.83
N10560 X21.189 Y-14.831
N10565 X21.162
N10570 X21.134 Y-14.832
N10575 X21.107
N10580 X21.08 Y-14.833
N10585 X21.053
N10590 X21.026
N10595 X20.945 Y-14.834
N10600 X20.917
N10605 X20.89
N10610 X20.863
N10615 X20.836
N10620 X20.809
N10625 X20.782 Y-14.833
N10630 X20.755
N10635 X20.727
N10640 X20.7
N10645 X20.673 Y-14.832
N10650 X20.646
N10655 X20.618 Y-14.831
N10660 X20.591 Y-14.83
N10665 X20.564 Y-14.829
N10670 X20.537 Y-14.828
N10675 X20.509 Y-14.827
N10680 X20.482 Y-14.826
N10685 X20.455 Y-14.824
N10690 X20.428 Y-14.823
N10695 X20.4 Y-14.821
N10700 X20.373 Y-14.819
N10705 X20.346 Y-14.817
N10710 X20.319 Y-14.815
N10715 X20.292 Y-14.813
N10720 X20.265 Y-14.81
N10725 X20.238 Y-14.808
N10730 X20.211 Y-14.806
N10735 X20.208
N10740 X20.204 Y-14.805
N10745 X20.201
N10750 X20.198
N10755 X20.196 Y-14.804
N10760 X20.192
N10765 X20.19
N10770 X20.186 Y-14.803
N10775 X20.184
N10780 X20.182
N10785 X20.178 Y-14.802
N10790 X20.176
N10795 X20.172
N10800 X20.17 Y-14.801
N10805 X20.168
N10810 X20.166
N10815 X14.58
N10820 X14.498 Y-14.808
N10825 X14.47 Y-14.811
N10830 X14.441 Y-14.814
N10835 X14.413 Y-14.816
N10840 X14.385 Y-14.818
N10845 X14.356 Y-14.821
N10850 X14.328 Y-14.823
N10855 X14.299 Y-14.824
N10860 X14.271 Y-14.826
N10865 X14.242 Y-14.828
N10870 X14.214 Y-14.829
N10875 X14.185 Y-14.83
N10880 X14.157 Y-14.831
N10885 X14.128
N10890 X14.1 Y-14.832
N10895 X14.072 Y-14.833
N10900 X14.043
N10905 X14.015
N10910 X13.987 Y-14.834
N10915 X13.958
N10920 X13.93
N10925 X13.902
N10930 X13.873
N10935 X13.817 Y-14.833
N10940 X13.789
N10945 X13.761
N10950 X13.733 Y-14.832
N10955 X13.704
N10960 X13.676 Y-14.831
N10965 X13.648
N10970 X13.62 Y-14.83
N10975 X13.592 Y-14.829
N10980 X13.563 Y-14.827
N10985 X13.535 Y-14.826
N10990 X13.507 Y-14.824
N10995 X13.478 Y-14.822
N11000 X13.45 Y-14.82
N11005 X13.422 Y-14.818
N11010 X13.394 Y-14.816
N11015 X13.366 Y-14.814
N11020 X13.338 Y-14.811
N11025 X13.31 Y-14.808
N11030 X13.282 Y-14.806
N11035 X13.254 Y-14.803
N11040 X13.228 Y-14.801
N11045 X9.791
N11050 X9.73 Y-14.806
N11055 X9.698 Y-14.808
N11060 X9.667 Y-14.811
N11065 X9.635 Y-14.814
N11070 X9.603 Y-14.816
N11075 X9.571 Y-14.818
N11080 X9.54 Y-14.82
N11085 X9.508 Y-14.823
N11090 X9.476 Y-14.824
N11095 X9.444 Y-14.826
N11100 X9.412 Y-14.827
N11105 X9.38 Y-14.829
N11110 X9.348 Y-14.83
N11115 X9.316 Y-14.831
N11120 X9.284
N11125 X9.252 Y-14.832
N11130 X9.22
N11135 X9.188 Y-14.833
N11140 X9.157
N11145 X9.125
N11150 X9.093 Y-14.834
N11155 X9.061
N11160 X9.029
N11165 X8.994
N11170 X8.959
N11175 X8.923
N11180 X8.888
N11185 X8.853
N11190 X8.817
N11195 X8.782 Y-14.833
N11200 X8.746
N11205 X8.711 Y-14.832
N11210 X8.675
N11215 X8.64 Y-14.831
N11220 X8.604 Y-14.83
N11225 X8.569 Y-14.829
N11230 X8.534 Y-14.827
N11235 X8.498 Y-14.826
N11240 X8.463 Y-14.824
N11245 X8.427 Y-14.822
N11250 X8.391 Y-14.819
N11255 X8.356 Y-14.817
N11260 X8.321 Y-14.814
N11265 X8.285 Y-14.811
N11270 X8.25 Y-14.807
N11275 X8.214 Y-14.804
N11280 X8.182 Y-14.801
N11285 X2.193
N11290 X2.165 Y-14.803
N11295 X2.135 Y-14.806
N11300 X2.106 Y-14.808
N11305 X2.076 Y-14.811
N11310 X2.046 Y-14.814
N11315 X2.016 Y-14.816
N11320 X1.986 Y-14.818
N11325 X1.956 Y-14.821
N11330 X1.926 Y-14.823
N11335 X1.896 Y-14.824
N11340 X1.866 Y-14.826
N11345 X1.836 Y-14.828
N11350 X1.805 Y-14.829
N11355 X1.775 Y-14.83
N11360 X1.745 Y-14.831
N11365 X1.715
N11370 X1.685 Y-14.832
N11375 X1.655 Y-14.833
N11380 X1.625
N11385 X1.595
N11390 X1.565 Y-14.834
N11395 X1.535
N11400 X1.505
N11405 X1.475
N11410 X1.445
N11415 X1.415
N11420 X1.386 Y-14.833
N11425 X1.356
N11430 X1.326
N11435 X1.297 Y-14.832
N11440 X1.267
N11445 X1.237 Y-14.831
N11450 X1.207
N11455 X1.177 Y-14.83
N11460 X1.147 Y-14.829
N11465 X1.118 Y-14.827
N11470 X1.088 Y-14.826
N11475 X1.058 Y-14.824
N11480 X1.028 Y-14.822
N11485 X0.998 Y-14.82
N11490 X0.968 Y-14.818
N11495 X0.939 Y-14.816
N11500 X0.909 Y-14.814
N11505 X0.879 Y-14.811
N11510 X0.85 Y-14.808
N11515 X0.82 Y-14.806
N11520 X0.791 Y-14.803
N11525 X0.761 Y-14.8
N11530 X0.759
N11535 X0.74 Y-14.798
N11540 X0.721 Y-14.795
N11545 X0.701 Y-14.793
N11550 X0.682 Y-14.79
N11555 X0.663 Y-14.788
N11560 X0.643 Y-14.785
N11565 X0.624 Y-14.782
N11570 X0.605 Y-14.779
N11575 X0.585 Y-14.776
N11580 X0.566 Y-14.772
N11585 X0.546 Y-14.769
N11590 X0.527 Y-14.765
N11595 X0.507 Y-14.761
N11600 X0.506
N11605 X0.488 Y-14.756
N11610 X0.469 Y-14.752
N11615 X0.449 Y-14.747
N11620 X0.43 Y-14.742
N11625 X0.411 Y-14.737
N11630 X0.392 Y-14.731
N11635 X0.373 Y-14.726
N11640 X0.354 Y-14.72
N11645 X0.336 Y-14.715
N11650 X0.317 Y-14.709
N11655 X0.298 Y-14.703
N11660 X0.295 Y-14.702
N11665 X0.283 Y-14.698
N11670 X0.272 Y-14.693
N11675 X0.261 Y-14.689
N11680 X0.249 Y-14.684
N11685 X0.237 Y-14.679
N11690 X0.226 Y-14.674
N11695 X0.225
N11700 X0.214 Y-14.669
N11705 X0.203 Y-14.664
N11710 X0.202 Y-14.663
N11715 X0.191 Y-14.658
N11720 X0.19 Y-14.657
N11725 X0.18 Y-14.652
N11730 X0.179 Y-14.651
N11735 X0.168 Y-14.645
N11740 X0.167
N11745 X0.157 Y-14.639
N11750 X0.156 Y-14.638
N11755 X0.146 Y-14.632
N11760 X0.145 Y-14.631
N11765 X0.135 Y-14.624
N11770 X0.133 Y-14.623
N11775 X0.124 Y-14.616
N11780 X0.123
N11785 X0.113 Y-14.608
N11790 X0.103 Y-14.6
N11795 X0.102 Y-14.599
N11800 X0.093 Y-14.592
N11805 X0.083 Y-14.583
N11810 X0.074 Y-14.575
N11815 X0.065 Y-14.566
N11820 X0.056 Y-14.558
N11825 X0.047 Y-14.549
N11830 X0.038 Y-14.541
N11835 G2 X0.031 Y-14.533 I0.035 J0.036
N11840 G1 X0.026 Y-14.525
N11845 X0.02 Y-14.517
N11850 X0.015 Y-14.508
N11855 X0.009 Y-14.499
N11860 X0.004 Y-14.491
N11865 X-0.001 Y-14.482
N11870 X-0.007 Y-14.473
N11875 Y-14.471
N11880 X-0.012 Y-14.463
N11885 Y-14.462
N11890 X-0.017 Y-14.453
N11895 Y-14.452
N11900 X-0.021 Y-14.443
N11905 X-0.022 Y-14.442
N11910 X-0.025 Y-14.433
N11915 X-0.026 Y-14.431
N11920 X-0.029 Y-14.422
N11925 X-0.03 Y-14.42
N11930 X-0.033 Y-14.411
N11935 X-0.034 Y-14.409
N11940 X-0.036 Y-14.4
N11945 Y-14.399
N11950 X-0.039 Y-14.389
N11955 Y-14.388
N11960 X-0.041 Y-14.378
N11965 Y-14.377
N11970 X-0.043 Y-14.368
N11975 Y-14.367
N11980 X-0.044 Y-14.357
N11985 X-0.046 Y-14.347
N11990 X-0.047 Y-14.336
N11995 X-0.048 Y-14.326
N12000 Y-14.316
N12005 X-0.049 Y-14.306
N12010 X-0.05 Y-14.296
N12015 Y-14.292
N12020 Y-0.67
N12025 Y-0.667
N12030 X-0.049 Y-0.657
N12035 X-0.048 Y-0.647
N12040 Y-0.637
N12045 X-0.047 Y-0.627
N12050 X-0.046 Y-0.617
N12055 X-0.044 Y-0.607
N12060 Y-0.606
N12065 X-0.043 Y-0.596
N12070 Y-0.595
N12075 X-0.041 Y-0.586
N12080 Y-0.584
N12085 X-0.039 Y-0.575
N12090 Y-0.574
N12095 X-0.036 Y-0.564
N12100 Y-0.563
N12105 X-0.034 Y-0.554
N12110 X-0.033 Y-0.552
N12115 X-0.03 Y-0.543
N12120 X-0.029 Y-0.541
N12125 X-0.026 Y-0.532
N12130 Y-0.53
N12135 X-0.022 Y-0.521
N12140 X-0.021 Y-0.52
N12145 X-0.017 Y-0.511
N12150 Y-0.51
N12155 X-0.012 Y-0.501
N12160 Y-0.5
N12165 X-0.007 Y-0.491
N12170 Y-0.49
N12175 X-0.002 Y-0.482
N12180 X-0.001 Y-0.481
N12185 X0.003 Y-0.473
N12190 X0.009 Y-0.464
N12195 X0.015 Y-0.455
N12200 X0.02 Y-0.447
N12205 X0.026 Y-0.438
N12210 X0.031 Y-0.43
N12215 G2 X0.038 Y-0.422 I0.042 J-0.028
N12220 G1 X0.047 Y-0.414
N12225 X0.056 Y-0.405
N12230 X0.065 Y-0.397
N12235 X0.074 Y-0.389
N12240 X0.083 Y-0.38
N12245 X0.093 Y-0.372
N12250 X0.102 Y-0.364
N12255 X0.103 Y-0.363
N12260 X0.113 Y-0.356
N12265 X0.114 Y-0.355
N12270 X0.123 Y-0.348
N12275 X0.124 Y-0.347
N12280 X0.134 Y-0.341
N12285 X0.135 Y-0.34
N12290 X0.145 Y-0.333
N12295 X0.146 Y-0.332
N12300 X0.156 Y-0.326
N12305 X0.158 Y-0.325
N12310 X0.168 Y-0.32
N12315 X0.169 Y-0.319
N12320 X0.18 Y-0.313
N12325 X0.181
N12330 X0.191 Y-0.308
N12335 X0.192 Y-0.307
N12340 X0.203 Y-0.302
N12345 X0.204
N12350 X0.215 Y-0.297
N12355 X0.226 Y-0.292
N12360 X0.238 Y-0.287
N12365 X0.25 Y-0.283
N12370 X0.262 Y-0.278
N12375 X0.273 Y-0.274
N12380 X0.285 Y-0.27
N12385 X0.296 Y-0.266
N12390 X0.299 Y-0.265
N12395 X0.318 Y-0.26
N12400 X0.337 Y-0.254
N12405 X0.355 Y-0.249
N12410 X0.374 Y-0.244
N12415 X0.393 Y-0.239
N12420 X0.412 Y-0.234
N12425 X0.431 Y-0.229
N12430 X0.45 Y-0.225
N12435 X0.469 Y-0.22
N12440 X0.488 Y-0.216
N12445 X0.508 Y-0.212
N12450 X0.527 Y-0.208
N12455 X0.547 Y-0.204
N12460 X0.566 Y-0.201
N12465 X0.585 Y-0.198
N12470 X0.605 Y-0.195
N12475 X0.624 Y-0.192
N12480 X0.644 Y-0.189
N12485 X0.663 Y-0.186
N12490 X0.682 Y-0.184
N12495 X0.702 Y-0.181
N12500 X0.721 Y-0.179
N12505 X0.74 Y-0.176
N12510 X0.759 Y-0.174
N12515 X0.761
N12520 X0.79 Y-0.171
N12525 X0.82 Y-0.168
N12530 X0.85 Y-0.166
N12535 X0.879 Y-0.163
N12540 X0.909 Y-0.161
N12545 X0.938 Y-0.158
N12550 X0.968 Y-0.156
N12555 X0.998 Y-0.154
N12560 X1.028 Y-0.152
N12565 X1.058 Y-0.15
N12570 X1.087 Y-0.148
N12575 X1.117 Y-0.147
N12580 X1.147 Y-0.145
N12585 X1.177 Y-0.144
N12590 X1.207
N12595 X1.237 Y-0.143
N12600 X1.267 Y-0.142
N12605 X1.296
N12610 X1.326 Y-0.141
N12615 X1.356
N12620 X1.386
N12625 X1.415 Y-0.14
N12630 X1.445
N12635 X1.475
N12640 X1.505
N12645 X1.535
N12650 X1.565 Y-0.141
N12655 X1.595
N12660 X1.625
N12665 X1.655
N12670 X1.685 Y-0.142
N12675 X1.715 Y-0.143
N12680 X1.745
N12685 X1.775 Y-0.144
N12690 X1.805 Y-0.145
N12695 X1.835 Y-0.147
N12700 X1.865 Y-0.148
N12705 X1.895 Y-0.15
N12710 X1.926 Y-0.151
N12715 X1.956 Y-0.153
N12720 X1.986 Y-0.156
N12725 X2.016 Y-0.158
N12730 X2.046 Y-0.16
N12735 X2.076 Y-0.163
N12740 X2.105 Y-0.166
N12745 X2.135 Y-0.168
N12750 X2.165 Y-0.171
N12755 X2.195 Y-0.174
N12760 X2.197
N12765 X2.215 Y-0.176
N12770 X2.234 Y-0.179
N12775 X2.253 Y-0.181
N12780 X2.272 Y-0.184
N12785 X2.291 Y-0.186
N12790 X2.31 Y-0.189
N12795 X2.33 Y-0.192
N12800 X2.349 Y-0.195
N12805 X2.368 Y-0.198
N12810 X2.387 Y-0.201
N12815 X2.406 Y-0.205
N12820 X2.425 Y-0.208
N12825 X2.444 Y-0.212
N12830 X2.464 Y-0.216
N12835 X2.483 Y-0.22
N12840 X2.502 Y-0.225
N12845 X2.521 Y-0.23
N12850 X2.539 Y-0.234
N12855 X2.558 Y-0.239
N12860 X2.577 Y-0.244
N12865 X2.595 Y-0.249
N12870 X2.614 Y-0.254
N12875 X2.632 Y-0.26
N12880 X2.651 Y-0.265
N12885 X2.654 Y-0.266
N12890 X2.665 Y-0.27
N12895 X2.676 Y-0.274
N12900 X2.688 Y-0.278
N12905 X2.699 Y-0.282
N12910 X2.711 Y-0.287
N12915 X2.722 Y-0.291
N12920 X2.734 Y-0.296
N12925 X2.745 Y-0.301
N12930 X2.746 Y-0.302
N12935 X2.757 Y-0.307
N12940 X2.758
N12945 X2.768 Y-0.312
N12950 X2.769 Y-0.313
N12955 X2.779 Y-0.318
N12960 X2.781 Y-0.319
N12965 X2.791 Y-0.325
N12970 X2.792 Y-0.326
N12975 X2.802 Y-0.332
N12980 X2.803 Y-0.333
N12985 X2.813 Y-0.339
N12990 X2.814 Y-0.34
N12995 X2.824 Y-0.347
N13000 X2.825 Y-0.348
N13005 X2.834 Y-0.355
N13010 X2.835 Y-0.356
N13015 X2.844 Y-0.363
N13020 X2.845 Y-0.364
N13025 X2.854 Y-0.372
N13030 X2.855
N13035 X2.863 Y-0.38
N13040 X2.872 Y-0.389
N13045 X2.881 Y-0.397
N13050 X2.89 Y-0.406
N13055 X2.899 Y-0.414
N13060 X2.907 Y-0.423
N13065 G2 X2.914 Y-0.432 I-0.035 J-0.035
N13070 G1 X2.919 Y-0.44
N13075 X2.925 Y-0.448
N13080 X2.93 Y-0.457
N13085 X2.935 Y-0.465
N13090 X2.94 Y-0.474
N13095 X2.945 Y-0.483
N13100 Y-0.484
N13105 X2.95 Y-0.493
N13110 Y-0.494
N13115 X2.954 Y-0.502
N13120 X2.955 Y-0.503
N13125 X2.959 Y-0.512
N13130 Y-0.513
N13135 X2.963 Y-0.522
N13140 X2.964 Y-0.523
N13145 X2.967 Y-0.532
N13150 X2.968 Y-0.534
N13155 X2.97 Y-0.543
N13160 X2.971 Y-0.545
N13165 X2.974 Y-0.554
N13170 Y-0.555
N13175 X2.976 Y-0.565
N13180 X2.977 Y-0.566
N13185 X2.979 Y-0.575
N13190 Y-0.577
N13195 X2.981 Y-0.586
N13200 Y-0.587
N13205 X2.982 Y-0.596
N13210 X2.983 Y-0.598
N13215 X2.984 Y-0.607
N13220 X2.985 Y-0.617
N13225 X2.986 Y-0.628
N13230 X2.987 Y-0.638
N13235 X2.988 Y-0.648
N13240 Y-0.658
N13245 X2.989 Y-0.667
N13250 Y-0.67
N13255 Y-6.667
N13260 X7.132 Y-0.655
N13265 X7.138 Y-0.645
N13270 X7.144 Y-0.634
N13275 X7.151 Y-0.623
N13280 X7.158 Y-0.612
N13285 X7.165 Y-0.6
N13290 X7.172 Y-0.589
N13295 X7.179 Y-0.578
N13300 X7.186 Y-0.566
N13305 X7.194 Y-0.555
N13310 X7.202 Y-0.544
N13315 X7.21 Y-0.533
N13320 Y-0.532
N13325 X7.218 Y-0.522
N13330 X7.219 Y-0.521
N13335 X7.227 Y-0.511
N13340 X7.228 Y-0.51
N13345 X7.236 Y-0.501
N13350 X7.237 Y-0.5
N13355 X7.245 Y-0.49
N13360 X7.254 Y-0.48
N13365 X7.263 Y-0.47
N13370 X7.273 Y-0.461
N13375 X7.282 Y-0.451
N13380 X7.292 Y-0.442
N13385 X7.301 Y-0.432
N13390 X7.311 Y-0.423
N13395 X7.32 Y-0.414
N13400 X7.33 Y-0.405
N13405 X7.335 Y-0.401
N13410 X7.346 Y-0.393
N13415 X7.357 Y-0.385
N13420 X7.368 Y-0.377
N13425 X7.38 Y-0.368
N13430 X7.391 Y-0.36
N13435 X7.403 Y-0.352
N13440 X7.415 Y-0.344
N13445 X7.427 Y-0.336
N13450 X7.44 Y-0.329
N13455 X7.441 Y-0.328
N13460 X7.452 Y-0.321
N13465 X7.453
N13470 X7.465 Y-0.314
N13475 X7.466
N13480 X7.478 Y-0.307
N13485 X7.479
N13490 X7.492 Y-0.301
N13495 X7.493 Y-0.3
N13500 X7.505 Y-0.294
N13505 X7.518 Y-0.288
N13510 X7.532 Y-0.283
N13515 X7.545 Y-0.277
N13520 X7.559 Y-0.272
N13525 X7.572 Y-0.267
N13530 X7.585 Y-0.262
N13535 X7.599 Y-0.257
N13540 X7.612 Y-0.252
N13545 X7.625 Y-0.248
N13550 X7.638 Y-0.243
N13555 X7.642 Y-0.242
N13560 X7.661 Y-0.237
N13565 X7.68 Y-0.232
N13570 X7.699 Y-0.228
N13575 X7.718 Y-0.223
N13580 X7.737 Y-0.218
N13585 X7.756 Y-0.214
N13590 X7.775 Y-0.209
N13595 X7.795 Y-0.205
N13600 X7.814 Y-0.201
N13605 X7.834 Y-0.197
N13610 X7.853 Y-0.193
N13615 X7.873 Y-0.19
N13620 X7.893 Y-0.187
N13625 X7.913 Y-0.184
N13630 X7.932 Y-0.181
N13635 X7.952 Y-0.178
N13640 X7.972 Y-0.176
N13645 X7.991 Y-0.174
N13650 X8.011 Y-0.172
N13655 X8.03 Y-0.17
N13660 X8.05 Y-0.168
N13665 X8.069 Y-0.166
N13670 X8.089 Y-0.164
N13675 X8.108 Y-0.163
N13680 X8.11 Y-0.162
N13685 X8.14 Y-0.161
N13690 X8.169 Y-0.159
N13695 X8.199 Y-0.157
N13700 X8.229 Y-0.155
N13705 X8.259 Y-0.154
N13710 X8.289 Y-0.152
N13715 X8.319 Y-0.15
N13720 X8.349 Y-0.149
N13725 X8.379 Y-0.148
N13730 X8.409 Y-0.146
N13735 X8.439 Y-0.145
N13740 X8.469 Y-0.144
N13745 X8.499
N13750 X8.529 Y-0.143
N13755 X8.559 Y-0.142
N13760 X8.589
N13765 X8.619 Y-0.141
N13770 X8.648
N13775 X8.678
N13780 X8.708 Y-0.14
N13785 X8.738
N13790 X8.768
N13795 X8.798
N13800 X8.828
N13805 X8.859
N13810 X8.89
N13815 X8.921 Y-0.141
N13820 X8.952
N13825 X8.982
N13830 X9.013 Y-0.142
N13835 X9.044
N13840 X9.075 Y-0.143
N13845 X9.106
N13850 X9.137 Y-0.144
N13855 X9.168 Y-0.145
N13860 X9.199 Y-0.147
N13865 X9.23 Y-0.148
N13870 X9.261 Y-0.15
N13875 X9.292 Y-0.151
N13880 X9.323 Y-0.154
N13885 X9.354 Y-0.156
N13890 X9.385 Y-0.158
N13895 X9.416 Y-0.16
N13900 X9.447 Y-0.163
N13905 X9.478 Y-0.166
N13910 X9.509 Y-0.168
N13915 X9.539 Y-0.171
N13920 X9.57 Y-0.174
N13925 X9.572
N13930 X9.591 Y-0.176
N13935 X9.611 Y-0.179
N13940 X9.631 Y-0.181
N13945 X9.651 Y-0.184
N13950 X9.67 Y-0.187
N13955 X9.69 Y-0.189
N13960 X9.71 Y-0.192
N13965 X9.73 Y-0.195
N13970 X9.75 Y-0.198
N13975 X9.77 Y-0.202
N13980 X9.79 Y-0.206
N13985 X9.81 Y-0.209
N13990 X9.829 Y-0.213
N13995 X9.849 Y-0.218
N14000 X9.869 Y-0.222
N14005 X9.889 Y-0.227
N14010 X9.909 Y-0.232
N14015 X9.928 Y-0.237
N14020 X9.947 Y-0.243
N14025 X9.967 Y-0.248
N14030 X9.986 Y-0.254
N14035 X10.005 Y-0.259
N14040 X10.024 Y-0.265
N14045 X10.043 Y-0.271
N14050 X10.047 Y-0.272
N14055 X10.058 Y-0.276
N14060 X10.07 Y-0.28
N14065 X10.081 Y-0.285
N14070 X10.093 Y-0.289
N14075 X10.104 Y-0.294
N14080 X10.116 Y-0.299
N14085 X10.128 Y-0.304
N14090 X10.139 Y-0.309
N14095 X10.14 Y-0.31
N14100 X10.151 Y-0.315
N14105 X10.152
N14110 X10.163 Y-0.321
N14115 X10.164
N14120 X10.174 Y-0.327
N14125 X10.176 Y-0.328
N14130 X10.186 Y-0.334
N14135 X10.187 Y-0.335
N14140 X10.197 Y-0.341
N14145 X10.199 Y-0.342
N14150 X10.208 Y-0.349
N14155 X10.21 Y-0.35
N14160 X10.219 Y-0.357
N14165 X10.22
N14170 X10.23 Y-0.365
N14175 X10.231 Y-0.366
N14180 X10.24 Y-0.373
N14185 X10.241 Y-0.374
N14190 X10.25 Y-0.382
N14195 X10.26 Y-0.39
N14200 X10.269 Y-0.399
N14205 X10.278 Y-0.408
N14210 X10.287 Y-0.417
N14215 X10.296 Y-0.425
N14220 X10.305 Y-0.434
N14225 G2 X10.312 Y-0.442 I-0.035 J-0.035
N14230 G1 X10.317 Y-0.45
N14235 X10.321 Y-0.458
N14240 X10.327 Y-0.466
N14245 X10.332 Y-0.474
N14250 X10.336 Y-0.483
N14255 X10.337
N14260 X10.341 Y-0.491
N14265 X10.346 Y-0.5
N14270 X10.347 Y-0.501
N14275 X10.351 Y-0.509
N14280 Y-0.51
N14285 X10.355 Y-0.518
N14290 X10.356 Y-0.519
N14295 X10.359 Y-0.528
N14300 X10.36 Y-0.53
N14305 X10.363 Y-0.538
N14310 X10.364 Y-0.539
N14315 X10.367 Y-0.547
N14320 X10.368 Y-0.55
N14325 X10.37 Y-0.558
N14330 X10.371 Y-0.56
N14335 X10.373 Y-0.568
N14340 Y-0.569
N14345 X10.375 Y-0.578
N14350 X10.376 Y-0.58
N14355 X10.378 Y-0.589
N14360 Y-0.59
N14365 X10.379 Y-0.599
N14370 Y-0.6
N14375 X10.381 Y-0.609
N14380 X10.382 Y-0.619
N14385 Y-0.62
N14390 X10.383 Y-0.629
N14395 Y-0.63
N14400 X10.384 Y-0.639
N14405 X10.385 Y-0.648
N14410 X10.386 Y-0.657
N14415 Y-0.667
N14420 Y-0.674
N14425 X10.385 Y-0.691
N14430 X10.384 Y-0.708
N14435 X10.382 Y-0.726
N14440 X10.381 Y-0.743
N14445 X10.379 Y-0.76
N14450 X10.377 Y-0.778
N14455 X10.375 Y-0.795
N14460 Y-0.796
N14465 X10.372 Y-0.813
N14470 X10.369 Y-0.831
N14475 X10.366 Y-0.848
N14480 Y-0.85
N14485 X10.362 Y-0.866
N14490 Y-0.867
N14495 X10.358 Y-0.884
N14500 X10.357 Y-0.885
N14505 X10.353 Y-0.901
N14510 Y-0.903
N14515 X10.348 Y-0.919
N14520 X10.342 Y-0.936
N14525 Y-0.937
N14530 X10.336 Y-0.953
N14535 X10.33 Y-0.969
N14540 X10.323 Y-0.986
N14545 X10.317 Y-1.003
N14550 X10.31 Y-1.019
N14555 X10.303 Y-1.035
N14560 X10.296 Y-1.051
N14565 X10.289 Y-1.066
N14570 X10.282 Y-1.082
N14575 X10.28 Y-1.086
N14580 X10.265 Y-1.113
N14585 X10.25 Y-1.14
N14590 X10.235 Y-1.167
N14595 X10.22 Y-1.194
N14600 X10.205 Y-1.221
N14605 X10.19 Y-1.248
N14610 X10.175 Y-1.276
N14615 X10.159 Y-1.303
N14620 X10.144 Y-1.33
N14625 X10.128 Y-1.356
N14630 X10.112 Y-1.383
N14635 X10.096 Y-1.41
N14640 X10.08 Y-1.437
N14645 X10.064 Y-1.463
N14650 X10.048 Y-1.49
N14655 X10.031 Y-1.516
N14660 X10.015 Y-1.543
N14665 X9.998 Y-1.569
N14670 X9.982 Y-1.595
N14675 X9.965 Y-1.621
N14680 X9.948 Y-1.647
N14685 X9.932 Y-1.673
N14690 X9.915 Y-1.7
N14695 X9.898 Y-1.726
N14700 X9.896 Y-1.729
N14705 X5.95 Y-6.897
N14710 X10.255 Y-13.404
N14715 X10.258 Y-13.408
N14720 X10.264 Y-13.42
N14725 X10.277 Y-13.444
N14730 X10.284 Y-13.457
N14735 X10.297 Y-13.481
N14740 X10.304 Y-13.493
N14745 X10.317 Y-13.517
N14750 X10.323 Y-13.529
N14755 X10.33 Y-13.542
N14760 X10.336 Y-13.554
N14765 X10.343 Y-13.566
N14770 X10.349 Y-13.579
N14775 X10.362 Y-13.603
N14780 X10.368 Y-13.615
N14785 X10.375 Y-13.627
N14790 X10.381 Y-13.64
N14795 X10.388 Y-13.652
N14800 X10.394 Y-13.665
N14805 X10.399 Y-13.674
N14810 X12.466
N14815 Y-7.018
N14820 G0 Z0.
N14830 M9
N14835 G53 Z0.
N14840 M30
%
